;(.../Electronics/Eagle/pcb-gcode/pcb-gcode.ulp)
;(Copyright 2005 - 2012 by John Johnson)
;(See readme.txt for licensing terms.)
;(This file generated from the board:)
;(.../Electronics/chicken-shield.brd)
;(Current profile is .../pcb-gcode/profiles/generic.pp  )
;(This file generated 08/07/2017 11:51)
;(Settings from pcb-machine.h)
;(spindle on time = 1000.0000)
;(  Tool Size)
;(0.1778 )
;(spindle speed = 30000.0000)
;(tool change at 0.0000 0.0000 5.0000 )
;(feed rate xy = F500.00 )
;(feed rate z  = F200.00 )
;(Z Axis Settings)
;(  High     Up        Down     Drill)
;(5.0000 	2.0000 	-0.2000 	-2.0000 )
;(Settings from pcb-defaults.h)
;(isolate min = 0.0250)
;(isolate max = 0.5000)
;(isolate step = 0.0800)
;(Generated top outlines, top drill, )
;(Unit of measure: mm)
;(Metric Mode)
G21
;(Absolute Coordinates)
G90
;S30000
G00 Z5.0000  F3000
G00 X0.0000 Y0.0000  F3000
;M03 S1
G04 P1000.000000
G00 Z2.0000  F3000
G00 X1.9201 Y3.3102  F3000
G01 Z-0.2000 F200.00 
G01 X2.0402 Y3.1901 F500.00 
G01 X2.1776 Y3.0903 
G01 X2.3290 Y3.0132 
G01 X2.4905 Y2.9607 
G01 X2.6583 Y2.9341 
G01 X6.3079 Y2.9341 
G01 X6.4757 Y2.9607 
G01 X6.6372 Y3.0132 
G01 X6.7886 Y3.0903 
G01 X6.9260 Y3.1901 
G01 X7.0461 Y3.3102 
G01 X7.1459 Y3.4476 
G01 X7.2230 Y3.5990 
G01 X7.2755 Y3.7605 
G01 X7.3021 Y3.9283 
G01 X7.3021 Y5.3965 
G01 X7.4472 Y5.7468 
G01 X7.7152 Y6.0148 
G01 X8.0655 Y6.1599 
G01 X8.4445 Y6.1599 
G01 X8.7948 Y6.0148 
G01 X8.8220 Y5.9876 
G01 X8.9594 Y5.8878 
G01 X9.1107 Y5.8106 
G01 X9.2723 Y5.7582 
G01 X9.3319 Y5.7487 
G01 X9.4401 Y5.7316 
G01 X9.6099 Y5.7316 
G01 X9.7409 Y5.7523 
G01 X9.7777 Y5.7581 
G01 X9.8524 Y5.7824 
G01 X9.9392 Y5.8106 
G01 X9.9418 Y5.8119 
G01 X10.0906 Y5.8877 
G01 X10.2280 Y5.9876 
G01 X10.2552 Y6.0148 
G01 X10.5586 Y6.1405 
G01 X10.5991 Y6.1536 
G01 X10.6370 Y6.1730 
G01 X10.6763 Y6.1892 
G01 X10.7125 Y6.2114 
G01 X10.7504 Y6.2308 
G01 X10.7848 Y6.2558 
G01 X10.8211 Y6.2780 
G01 X10.8534 Y6.3056 
G01 X10.8879 Y6.3306 
G01 X10.9179 Y6.3607 
G01 X10.9503 Y6.3883 
G01 X10.9779 Y6.4206 
G01 X11.0080 Y6.4507 
G01 X11.0330 Y6.4851 
G01 X11.0606 Y6.5174 
G01 X11.0828 Y6.5537 
G01 X11.1078 Y6.5881 
G01 X11.1271 Y6.6260 
G01 X11.1493 Y6.6623 
G01 X11.1656 Y6.7016 
G01 X11.1849 Y6.7395 
G01 X11.1980 Y6.7799 
G01 X11.2143 Y6.8192 
G01 X11.2242 Y6.8606 
G01 X11.2374 Y6.9010 
G01 X11.2440 Y6.9430 
G01 X11.2540 Y6.9844 
G01 X11.2573 Y7.0268 
G01 X11.2640 Y7.0688 
G01 X11.2640 Y7.1113 
G01 X11.2673 Y7.1537 
G01 X11.2640 Y7.1961 
G01 X11.2640 Y7.2386 
G01 X11.2573 Y7.2806 
G01 X11.2540 Y7.3230 
G01 X11.2440 Y7.3644 
G01 X11.2374 Y7.4064 
G01 X11.2242 Y7.4468 
G01 X11.2143 Y7.4882 
G01 X11.1980 Y7.5275 
G01 X11.1849 Y7.5679 
G01 X11.1656 Y7.6058 
G01 X11.1493 Y7.6451 
G01 X11.1271 Y7.6814 
G01 X11.1078 Y7.7193 
G01 X11.0828 Y7.7537 
G01 X11.0606 Y7.7899 
G01 X11.0329 Y7.8223 
G01 X11.0080 Y7.8567 
G01 X10.9779 Y7.8867 
G01 X10.9503 Y7.9191 
G01 X10.9179 Y7.9467 
G01 X6.7476 Y12.1171 
G01 X6.5909 Y12.4953 
G01 X6.5909 Y12.5274 
G01 X6.5643 Y12.6952 
G01 X6.5118 Y12.8567 
G01 X6.4347 Y13.0081 
G01 X6.3349 Y13.1455 
G01 X6.2148 Y13.2656 
G01 X6.0502 Y13.4302 
G01 X5.9051 Y13.7805 
G01 X5.9051 Y14.1595 
G01 X6.0493 Y14.5076 
G01 X6.0732 Y14.5328 
G01 X6.1232 Y14.5828 
G01 X6.1315 Y14.5943 
G01 X6.1413 Y14.6046 
G01 X6.1815 Y14.6631 
G01 X6.2230 Y14.7202 
G01 X6.2295 Y14.7329 
G01 X6.2375 Y14.7446 
G01 X6.2680 Y14.8086 
G01 X6.3002 Y14.8716 
G01 X6.3045 Y14.8851 
G01 X6.3107 Y14.8979 
G01 X6.3308 Y14.9659 
G01 X6.3526 Y15.0331 
G01 X6.3549 Y15.0471 
G01 X6.3589 Y15.0608 
G01 X6.3681 Y15.1310 
G01 X6.3792 Y15.2009 
G01 X6.3792 Y15.2151 
G01 X6.3811 Y15.2292 
G01 X6.3792 Y15.3000 
G01 X6.3792 Y15.3707 
G01 X6.3770 Y15.3847 
G01 X6.3766 Y15.3990 
G01 X6.3707 Y15.4309 
G01 X8.8693 Y15.4309 
G01 X8.8634 Y15.3990 
G01 X8.8630 Y15.3848 
G01 X8.8608 Y15.3707 
G01 X8.8608 Y15.2999 
G01 X8.8589 Y15.2292 
G01 X8.8608 Y15.2151 
G01 X8.8608 Y15.2009 
G01 X8.8719 Y15.1310 
G01 X8.8811 Y15.0608 
G01 X8.8851 Y15.0471 
G01 X8.8874 Y15.0331 
G01 X8.9092 Y14.9658 
G01 X8.9293 Y14.8979 
G01 X8.9355 Y14.8851 
G01 X8.9398 Y14.8716 
G01 X8.9720 Y14.8085 
G01 X9.0025 Y14.7446 
G01 X9.0105 Y14.7329 
G01 X9.0170 Y14.7202 
G01 X9.0585 Y14.6630 
G01 X9.0987 Y14.6046 
G01 X9.1085 Y14.5943 
G01 X9.1168 Y14.5828 
G01 X9.1668 Y14.5328 
G01 X9.1907 Y14.5076 
G01 X9.3349 Y14.1595 
G01 X9.3349 Y13.7805 
G01 X9.2346 Y13.5382 
G01 X9.2153 Y13.5004 
G01 X9.2021 Y13.4599 
G01 X9.1859 Y13.4206 
G01 X9.1759 Y13.3793 
G01 X9.1628 Y13.3388 
G01 X9.1561 Y13.2968 
G01 X9.1462 Y13.2555 
G01 X9.1429 Y13.2131 
G01 X9.1362 Y13.1711 
G01 X9.1362 Y13.1285 
G01 X9.1329 Y13.0861 
G01 X9.1362 Y13.0437 
G01 X9.1362 Y13.0012 
G01 X9.1429 Y12.9592 
G01 X9.1462 Y12.9168 
G01 X9.1561 Y12.8754 
G01 X9.1628 Y12.8334 
G01 X9.1759 Y12.7930 
G01 X9.1858 Y12.7516 
G01 X9.2021 Y12.7123 
G01 X9.2153 Y12.6719 
G01 X9.2346 Y12.6340 
G01 X9.2508 Y12.5947 
G01 X9.2731 Y12.5584 
G01 X9.2924 Y12.5206 
G01 X9.3174 Y12.4862 
G01 X9.3396 Y12.4499 
G01 X9.3672 Y12.4175 
G01 X9.3922 Y12.3831 
G01 X9.4223 Y12.3531 
G01 X9.4499 Y12.3207 
G01 X9.4823 Y12.2931 
G01 X13.0638 Y8.7115 
G01 X13.2012 Y8.6117 
G01 X13.3526 Y8.5346 
G01 X13.5141 Y8.4821 
G01 X13.6819 Y8.4555 
G01 X13.8517 Y8.4555 
G01 X14.0195 Y8.4821 
G01 X14.1810 Y8.5346 
G01 X14.3324 Y8.6117 
G01 X14.4698 Y8.7115 
G01 X14.5899 Y8.8316 
G01 X14.6897 Y8.9691 
G01 X14.7668 Y9.1204 
G01 X14.8193 Y9.2819 
G01 X14.8459 Y9.4497 
G01 X14.8459 Y10.9997 
G01 X15.0026 Y11.3779 
G01 X20.9399 Y17.3153 
G01 X21.0397 Y17.4527 
G01 X21.1168 Y17.6040 
G01 X21.1693 Y17.7656 
G01 X21.1959 Y17.9333 
G01 X21.1959 Y19.5449 
G01 X21.1693 Y19.7127 
G01 X21.1168 Y19.8742 
G01 X21.0397 Y20.0256 
G01 X20.9399 Y20.1630 
G01 X20.8198 Y20.2831 
G01 X20.6824 Y20.3829 
G01 X20.5310 Y20.4600 
G01 X20.3695 Y20.5125 
G01 X20.2017 Y20.5391 
G01 X19.9303 Y20.5391 
G01 X19.7625 Y20.5125 
G01 X19.6010 Y20.4600 
G01 X19.4496 Y20.3829 
G01 X19.3122 Y20.2831 
G01 X19.1921 Y20.1630 
G01 X19.0923 Y20.0256 
G01 X19.0152 Y19.8742 
G01 X18.9627 Y19.7127 
G01 X18.9361 Y19.5449 
G01 X18.9361 Y19.4550 
G01 X18.7601 Y19.0301 
G01 X18.4349 Y18.7049 
G01 X18.0100 Y18.5289 
G01 X10.1836 Y18.5289 
G01 X10.1554 Y18.5319 
G01 X10.0988 Y18.5289 
G01 X10.0422 Y18.5289 
G01 X10.0141 Y18.5245 
G01 X9.9858 Y18.5230 
G01 X9.9304 Y18.5112 
G01 X9.8744 Y18.5023 
G01 X9.8474 Y18.4936 
G01 X9.8196 Y18.4877 
G01 X9.7667 Y18.4673 
G01 X9.7129 Y18.4498 
G01 X9.6876 Y18.4370 
G01 X9.6611 Y18.4268 
G01 X9.6120 Y18.3984 
G01 X9.5615 Y18.3727 
G01 X9.5386 Y18.3561 
G01 X9.5140 Y18.3419 
G01 X9.4699 Y18.3062 
G01 X9.4241 Y18.2729 
G01 X9.4040 Y18.2528 
G01 X9.3820 Y18.2350 
G01 X9.3441 Y18.1928 
G01 X9.3040 Y18.1528 
G01 X9.2873 Y18.1298 
G01 X9.2683 Y18.1087 
G01 X9.2375 Y18.0612 
G01 X9.2042 Y18.0154 
G01 X9.1913 Y17.9901 
G01 X9.1758 Y17.9663 
G01 X9.1528 Y17.9145 
G01 X9.1271 Y17.8640 
G01 X9.1183 Y17.8370 
G01 X9.1067 Y17.8111 
G01 X9.0921 Y17.7564 
G01 X9.0746 Y17.7025 
G01 X9.0701 Y17.6745 
G01 X9.0628 Y17.6470 
G01 X9.0569 Y17.5907 
G01 X8.7870 Y17.5891 
G01 X8.8931 Y17.6662 
G01 X8.8957 Y17.6681 
G01 X9.0158 Y17.7882 
G01 X9.1157 Y17.9256 
G01 X9.1918 Y18.0751 
G01 X9.2453 Y18.2385 
G01 X9.2719 Y18.4063 
G01 X9.2719 Y18.5761 
G01 X9.2453 Y18.7439 
G01 X9.2434 Y18.7497 
G01 X9.1928 Y18.9054 
G01 X9.1157 Y19.0568 
G01 X9.0177 Y19.1916 
G01 X9.0158 Y19.1942 
G01 X8.8957 Y19.3143 
G01 X6.6399 Y21.5701 
G01 X6.4639 Y21.9950 
G01 X6.4639 Y22.1794 
G01 X6.4373 Y22.3472 
G01 X6.3848 Y22.5087 
G01 X6.3077 Y22.6601 
G01 X6.2079 Y22.7975 
G01 X6.0878 Y22.9176 
G01 X6.0502 Y22.9552 
G01 X5.9051 Y23.3055 
G01 X5.9051 Y23.6845 
G01 X6.0502 Y24.0348 
G01 X6.0755 Y24.0601 
G01 X6.1773 Y24.1994 
G01 X6.2518 Y24.3457 
G01 X6.2544 Y24.3508 
G01 X6.2816 Y24.4347 
G01 X6.3068 Y24.5123 
G01 X6.3121 Y24.5453 
G01 X6.3334 Y24.6801 
G01 X6.3334 Y24.8499 
G01 X6.3169 Y24.9543 
G01 X6.3068 Y25.0177 
G01 X6.2544 Y25.1792 
G01 X6.1772 Y25.3306 
G01 X6.0774 Y25.4680 
G01 X6.0502 Y25.4952 
G01 X5.9051 Y25.8454 
G01 X5.9051 Y26.2245 
G01 X6.0502 Y26.5748 
G01 X6.3182 Y26.8428 
G01 X6.7258 Y27.0116 
G01 X6.7436 Y27.0145 
G01 X6.7494 Y27.0163 
G01 X6.9052 Y27.0670 
G01 X7.0565 Y27.1441 
G01 X7.1913 Y27.2420 
G01 X7.1939 Y27.2439 
G01 X7.3140 Y27.3640 
G01 X8.2351 Y28.2851 
G01 X8.6600 Y28.4611 
G01 X13.5650 Y28.4611 
G01 X13.9899 Y28.2851 
G01 X16.1928 Y26.0822 
G01 X16.3302 Y25.9823 
G01 X16.4816 Y25.9052 
G01 X16.6431 Y25.8527 
G01 X16.8109 Y25.8261 
G01 X16.9807 Y25.8261 
G01 X17.1485 Y25.8527 
G01 X17.3042 Y25.9033 
G01 X17.3100 Y25.9052 
G01 X17.4614 Y25.9823 
G01 X17.5988 Y26.0821 
G01 X17.7189 Y26.2023 
G01 X17.8187 Y26.3397 
G01 X17.8958 Y26.4910 
G01 X17.9483 Y26.6526 
G01 X17.9749 Y26.8203 
G01 X17.9749 Y27.3692 
G01 X18.0008 Y27.3560 
G01 X18.0011 Y25.9073 
G01 X18.0184 Y25.8655 
G01 X18.0505 Y25.8334 
G01 X18.0923 Y25.8161 
G01 X18.7377 Y25.8161 
G01 X18.7795 Y25.8334 
G01 X18.8116 Y25.8655 
G01 X18.8289 Y25.9073 
G01 X18.8289 Y27.3559 
G01 X18.8522 Y27.3677 
G01 X18.8763 Y27.3768 
G01 X18.9278 Y27.4062 
G01 X18.9806 Y27.4331 
G01 X19.0014 Y27.4483 
G01 X19.0238 Y27.4610 
G01 X19.0701 Y27.4981 
G01 X19.1180 Y27.5329 
G01 X19.1362 Y27.5512 
G01 X19.1563 Y27.5673 
G01 X19.1962 Y27.6112 
G01 X19.2381 Y27.6530 
G01 X19.2533 Y27.6739 
G01 X19.2706 Y27.6930 
G01 X19.3031 Y27.7426 
G01 X19.3379 Y27.7905 
G01 X19.3496 Y27.8134 
G01 X19.3563 Y27.8236 
G01 X19.3616 Y27.8263 
G01 X19.4990 Y27.9261 
G01 X19.6191 Y28.0462 
G01 X19.7189 Y28.1836 
G01 X19.7960 Y28.3350 
G01 X19.8485 Y28.4965 
G01 X19.8751 Y28.6643 
G01 X19.8751 Y29.9299 
G01 X19.8485 Y30.0977 
G01 X19.7960 Y30.2592 
G01 X19.7189 Y30.4106 
G01 X19.6191 Y30.5480 
G01 X19.4990 Y30.6681 
G01 X19.3616 Y30.7679 
G01 X19.2102 Y30.8450 
G01 X19.0487 Y30.8975 
G01 X18.8809 Y30.9241 
G01 X9.2344 Y30.9241 
G01 X9.0426 Y31.0035 
G01 X9.0047 Y31.0228 
G01 X8.9643 Y31.0360 
G01 X8.9250 Y31.0523 
G01 X8.8836 Y31.0622 
G01 X8.8432 Y31.0753 
G01 X8.8012 Y31.0820 
G01 X8.7598 Y31.0919 
G01 X8.7174 Y31.0952 
G01 X8.6754 Y31.1019 
G01 X8.6348 Y31.1019 
G01 X8.0751 Y31.3337 
G01 X8.0372 Y31.3530 
G01 X7.9967 Y31.3662 
G01 X7.9574 Y31.3825 
G01 X7.9161 Y31.3924 
G01 X7.8756 Y31.4055 
G01 X7.8336 Y31.4122 
G01 X7.7923 Y31.4221 
G01 X7.7499 Y31.4254 
G01 X7.7079 Y31.4321 
G01 X7.6653 Y31.4321 
G01 X7.6229 Y31.4354 
G01 X7.5805 Y31.4321 
G01 X6.6685 Y31.4321 
G01 X6.3182 Y31.5772 
G01 X6.0502 Y31.8452 
G01 X5.9051 Y32.1955 
G01 X5.9051 Y32.5745 
G01 X6.0493 Y32.9226 
G01 X6.0732 Y32.9478 
G01 X6.1232 Y32.9978 
G01 X6.1315 Y33.0093 
G01 X6.1413 Y33.0196 
G01 X6.1815 Y33.0780 
G01 X6.2230 Y33.1352 
G01 X6.2295 Y33.1479 
G01 X6.2375 Y33.1596 
G01 X6.2680 Y33.2235 
G01 X6.3002 Y33.2866 
G01 X6.3045 Y33.3001 
G01 X6.3107 Y33.3129 
G01 X6.3308 Y33.3808 
G01 X6.3526 Y33.4481 
G01 X6.3549 Y33.4621 
G01 X6.3589 Y33.4758 
G01 X6.3681 Y33.5460 
G01 X6.3792 Y33.6159 
G01 X6.3792 Y33.6301 
G01 X6.3811 Y33.6442 
G01 X6.3792 Y33.7149 
G01 X6.3792 Y33.7857 
G01 X6.3770 Y33.7998 
G01 X6.3766 Y33.8140 
G01 X6.3707 Y33.8459 
G01 X8.9785 Y33.8459 
G01 X9.0220 Y33.8425 
G01 X9.0632 Y33.8459 
G01 X9.1046 Y33.8459 
G01 X28.8656 Y33.8459 
G01 X29.4025 Y33.6235 
G01 X29.5738 Y33.4522 
G01 X29.7112 Y33.3524 
G01 X29.8626 Y33.2753 
G01 X29.9172 Y33.2575 
G01 X30.0241 Y33.2228 
G01 X30.1919 Y33.1962 
G01 X30.3617 Y33.1962 
G01 X30.4130 Y33.2043 
G01 X30.5295 Y33.2228 
G01 X30.6910 Y33.2753 
G01 X30.8424 Y33.3524 
G01 X30.9798 Y33.4522 
G01 X31.0999 Y33.5723 
G01 X31.1997 Y33.7097 
G01 X31.2768 Y33.8611 
G01 X31.2946 Y33.9157 
G01 X31.3293 Y34.0226 
G01 X31.3559 Y34.1904 
G01 X31.3559 Y34.7717 
G01 X31.3293 Y34.9394 
G01 X31.2768 Y35.1010 
G01 X31.1997 Y35.2523 
G01 X31.0999 Y35.3897 
G01 X30.9798 Y35.5098 
G01 X26.8138 Y39.6758 
G01 X26.4326 Y40.0571 
G01 X26.2759 Y40.4353 
G01 X26.2759 Y42.3046 
G01 X26.2792 Y42.3470 
G01 X26.2759 Y42.3894 
G01 X26.2759 Y42.4319 
G01 X26.2692 Y42.4739 
G01 X26.2659 Y42.5164 
G01 X26.2560 Y42.5577 
G01 X26.2493 Y42.5996 
G01 X26.2362 Y42.6401 
G01 X26.2262 Y42.6815 
G01 X26.2100 Y42.7208 
G01 X26.1968 Y42.7612 
G01 X26.1775 Y42.7991 
G01 X26.1612 Y42.8384 
G01 X26.1390 Y42.8747 
G01 X26.1197 Y42.9125 
G01 X26.0947 Y42.9469 
G01 X26.0725 Y42.9833 
G01 X26.0448 Y43.0156 
G01 X26.0199 Y43.0499 
G01 X25.9898 Y43.0800 
G01 X25.9621 Y43.1124 
G01 X25.9298 Y43.1400 
G01 X25.8998 Y43.1700 
G01 X25.8654 Y43.1951 
G01 X25.8330 Y43.2227 
G01 X25.7967 Y43.2449 
G01 X25.7624 Y43.2699 
G01 X25.7245 Y43.2892 
G01 X25.6881 Y43.3115 
G01 X25.6489 Y43.3277 
G01 X25.6110 Y43.3470 
G01 X25.5706 Y43.3601 
G01 X25.5312 Y43.3764 
G01 X25.4899 Y43.3864 
G01 X25.4495 Y43.3995 
G01 X25.4074 Y43.4061 
G01 X25.3660 Y43.4161 
G01 X25.3237 Y43.4194 
G01 X25.2817 Y43.4261 
G01 X25.2392 Y43.4261 
G01 X25.1967 Y43.4294 
G01 X25.1544 Y43.4261 
G01 X25.1119 Y43.4261 
G01 X25.0793 Y43.4209 
G01 X24.7155 Y43.4209 
G01 X24.6315 Y43.4209 
G01 X24.5457 Y43.4209 
G01 X24.4710 Y43.4091 
G01 X24.3779 Y43.3943 
G01 X24.3062 Y43.3710 
G01 X24.2164 Y43.3418 
G01 X24.1059 Y43.2855 
G01 X24.0650 Y43.2647 
G01 X23.9653 Y43.1923 
G01 X23.9276 Y43.1649 
G01 X23.8481 Y43.0854 
G01 X23.8075 Y43.0448 
G01 X23.7671 Y42.9891 
G01 X22.7628 Y42.9891 
G01 X22.7725 Y43.0505 
G01 X22.7725 Y43.1345 
G01 X22.7725 Y43.2204 
G01 X22.7577 Y43.3141 
G01 X22.7460 Y43.3882 
G01 X22.7142 Y43.4861 
G01 X22.6935 Y43.5497 
G01 X22.6440 Y43.6469 
G01 X22.6164 Y43.7010 
G01 X22.5671 Y43.7689 
G01 X22.5166 Y43.8385 
G01 X22.4772 Y43.8779 
G01 X22.3965 Y43.9586 
G01 X22.2632 Y44.0919 
G01 X22.2341 Y44.1620 
G01 X22.2341 Y44.7380 
G01 X22.2632 Y44.8081 
G01 X22.3169 Y44.8618 
G01 X22.3870 Y44.8909 
G01 X22.7535 Y44.8909 
G01 X22.9212 Y44.9175 
G01 X23.0828 Y44.9700 
G01 X23.2341 Y45.0471 
G01 X23.3715 Y45.1469 
G01 X23.4916 Y45.2670 
G01 X23.5471 Y45.3224 
G01 X23.9253 Y45.4791 
G01 X23.9767 Y45.4791 
G01 X24.1444 Y45.5057 
G01 X24.3060 Y45.5582 
G01 X24.4573 Y45.6353 
G01 X24.5947 Y45.7351 
G01 X24.7148 Y45.8552 
G01 X24.8171 Y45.9574 
G01 X25.1953 Y46.1141 
G01 X28.1631 Y46.1141 
G01 X28.1989 Y46.1025 
G01 X28.2409 Y46.0958 
G01 X28.2822 Y46.0859 
G01 X28.3246 Y46.0825 
G01 X28.3666 Y46.0759 
G01 X28.4092 Y46.0759 
G01 X28.4516 Y46.0726 
G01 X28.4940 Y46.0759 
G01 X29.6355 Y46.0759 
G01 X29.6756 Y46.0663 
G01 X29.7501 Y46.0604 
G01 X29.8449 Y46.0529 
G01 X29.9236 Y46.0591 
G01 X30.0143 Y46.0662 
G01 X30.0545 Y46.0759 
G01 X31.1960 Y46.0759 
G01 X31.2384 Y46.0726 
G01 X31.2808 Y46.0759 
G01 X31.3234 Y46.0759 
G01 X31.3654 Y46.0825 
G01 X31.4078 Y46.0859 
G01 X31.4491 Y46.0958 
G01 X31.4911 Y46.1025 
G01 X31.5269 Y46.1141 
G01 X31.6317 Y46.1141 
G01 X31.7995 Y46.1407 
G01 X31.9610 Y46.1932 
G01 X32.1124 Y46.2703 
G01 X32.2498 Y46.3701 
G01 X32.3699 Y46.4902 
G01 X32.4697 Y46.6276 
G01 X32.5468 Y46.7790 
G01 X32.5993 Y46.9405 
G01 X32.6259 Y47.1083 
G01 X32.6259 Y49.9794 
G01 X32.6289 Y50.0359 
G01 X32.6259 Y50.0642 
G01 X32.6259 Y50.0925 
G01 X32.6170 Y50.1485 
G01 X32.6111 Y50.2049 
G01 X32.6038 Y50.2323 
G01 X32.5993 Y50.2603 
G01 X32.5818 Y50.3142 
G01 X32.5671 Y50.3689 
G01 X32.5556 Y50.3949 
G01 X32.5468 Y50.4218 
G01 X32.5211 Y50.4723 
G01 X32.4981 Y50.5241 
G01 X32.4826 Y50.5479 
G01 X32.4697 Y50.5732 
G01 X32.4364 Y50.6190 
G01 X32.4056 Y50.6666 
G01 X32.3866 Y50.6876 
G01 X32.3699 Y50.7106 
G01 X32.3298 Y50.7507 
G01 X32.2919 Y50.7928 
G01 X32.2698 Y50.8106 
G01 X32.2498 Y50.8307 
G01 X32.2039 Y50.8640 
G01 X32.1941 Y50.8720 
G01 X32.1941 Y52.7899 
G01 X32.1675 Y52.9577 
G01 X32.1150 Y53.1192 
G01 X32.0379 Y53.2705 
G01 X31.9909 Y53.3353 
G01 X31.9909 Y53.5533 
G01 X31.9572 Y53.7225 
G01 X31.8912 Y53.8819 
G01 X31.7954 Y54.0254 
G01 X31.6734 Y54.1474 
G01 X31.5299 Y54.2432 
G01 X31.3705 Y54.3092 
G01 X31.2013 Y54.3429 
G01 X31.0287 Y54.3429 
G01 X30.8595 Y54.3092 
G01 X30.7001 Y54.2432 
G01 X30.5566 Y54.1474 
G01 X30.4346 Y54.0254 
G01 X30.3388 Y53.8819 
G01 X30.2983 Y53.7841 
G01 X29.3917 Y53.7841 
G01 X29.3512 Y53.8819 
G01 X29.2554 Y54.0254 
G01 X29.1334 Y54.1474 
G01 X28.9899 Y54.2432 
G01 X28.8305 Y54.3092 
G01 X28.6613 Y54.3429 
G01 X28.4887 Y54.3429 
G01 X28.3195 Y54.3092 
G01 X28.1601 Y54.2432 
G01 X28.0166 Y54.1474 
G01 X27.8946 Y54.0254 
G01 X27.7988 Y53.8819 
G01 X27.7328 Y53.7225 
G01 X27.6991 Y53.5533 
G01 X27.6991 Y53.3353 
G01 X27.6521 Y53.2705 
G01 X27.5749 Y53.1192 
G01 X27.5225 Y52.9577 
G01 X27.4959 Y52.7899 
G01 X27.4959 Y51.4557 
G01 X27.4639 Y51.4616 
G01 X27.4497 Y51.4620 
G01 X27.4357 Y51.4642 
G01 X27.3649 Y51.4642 
G01 X27.2941 Y51.4661 
G01 X27.2801 Y51.4642 
G01 X27.2659 Y51.4642 
G01 X27.1959 Y51.4531 
G01 X27.1257 Y51.4439 
G01 X27.1121 Y51.4399 
G01 X27.0981 Y51.4376 
G01 X27.0308 Y51.4158 
G01 X26.9629 Y51.3957 
G01 X26.9501 Y51.3895 
G01 X26.9366 Y51.3852 
G01 X26.8735 Y51.3530 
G01 X26.8096 Y51.3225 
G01 X26.7979 Y51.3145 
G01 X26.7852 Y51.3080 
G01 X26.7279 Y51.2664 
G01 X26.6696 Y51.2263 
G01 X26.6593 Y51.2165 
G01 X26.6478 Y51.2082 
G01 X26.5977 Y51.1581 
G01 X26.5726 Y51.1343 
G01 X26.2245 Y50.9901 
G01 X25.8455 Y50.9901 
G01 X25.4952 Y51.1352 
G01 X25.2272 Y51.4032 
G01 X25.0821 Y51.7535 
G01 X25.0821 Y53.2217 
G01 X25.0555 Y53.3895 
G01 X25.0030 Y53.5510 
G01 X24.9259 Y53.7024 
G01 X24.8261 Y53.8398 
G01 X24.7060 Y53.9599 
G01 X24.5686 Y54.0597 
G01 X24.4172 Y54.1368 
G01 X24.2557 Y54.1893 
G01 X24.0879 Y54.2159 
G01 X22.9021 Y54.2159 
G01 X22.7343 Y54.1893 
G01 X22.5728 Y54.1368 
G01 X22.4214 Y54.0597 
G01 X22.2840 Y53.9599 
G01 X22.1639 Y53.8398 
G01 X22.0641 Y53.7024 
G01 X21.9870 Y53.5510 
G01 X21.9345 Y53.3895 
G01 X21.9079 Y53.2217 
G01 X21.9079 Y51.7535 
G01 X21.7628 Y51.4032 
G01 X21.4948 Y51.1352 
G01 X21.1445 Y50.9901 
G01 X20.7655 Y50.9901 
G01 X20.4152 Y51.1352 
G01 X20.3880 Y51.1624 
G01 X20.2506 Y51.2622 
G01 X20.0992 Y51.3394 
G01 X19.9377 Y51.3918 
G01 X19.8781 Y51.4013 
G01 X19.7699 Y51.4184 
G01 X19.6001 Y51.4184 
G01 X19.4691 Y51.3977 
G01 X19.4323 Y51.3918 
G01 X19.3576 Y51.3676 
G01 X19.2708 Y51.3394 
G01 X19.2682 Y51.3381 
G01 X19.1194 Y51.2623 
G01 X18.9820 Y51.1624 
G01 X18.9548 Y51.1352 
G01 X18.6045 Y50.9901 
G01 X18.2255 Y50.9901 
G01 X17.8752 Y51.1352 
G01 X17.8480 Y51.1624 
G01 X17.7106 Y51.2622 
G01 X17.5592 Y51.3394 
G01 X17.3977 Y51.3918 
G01 X17.3381 Y51.4013 
G01 X17.2299 Y51.4184 
G01 X17.0601 Y51.4184 
G01 X16.9291 Y51.3977 
G01 X16.8923 Y51.3918 
G01 X16.8176 Y51.3676 
G01 X16.7308 Y51.3394 
G01 X16.7282 Y51.3381 
G01 X16.5794 Y51.2623 
G01 X16.4420 Y51.1624 
G01 X16.4148 Y51.1352 
G01 X16.0645 Y50.9901 
G01 X15.6855 Y50.9901 
G01 X15.3352 Y51.1352 
G01 X15.3080 Y51.1624 
G01 X15.1706 Y51.2622 
G01 X15.0192 Y51.3394 
G01 X14.8577 Y51.3918 
G01 X14.7981 Y51.4013 
G01 X14.6899 Y51.4184 
G01 X14.5201 Y51.4184 
G01 X14.3891 Y51.3977 
G01 X14.3523 Y51.3918 
G01 X14.2776 Y51.3676 
G01 X14.1908 Y51.3394 
G01 X14.1882 Y51.3381 
G01 X14.0394 Y51.2623 
G01 X13.9020 Y51.1624 
G01 X13.8748 Y51.1352 
G01 X13.5245 Y50.9901 
G01 X13.1455 Y50.9901 
G01 X12.7952 Y51.1352 
G01 X12.7680 Y51.1624 
G01 X12.6306 Y51.2622 
G01 X12.4792 Y51.3394 
G01 X12.3177 Y51.3918 
G01 X12.2581 Y51.4013 
G01 X12.1499 Y51.4184 
G01 X11.9801 Y51.4184 
G01 X11.8491 Y51.3977 
G01 X11.8123 Y51.3918 
G01 X11.7376 Y51.3676 
G01 X11.6508 Y51.3394 
G01 X11.6482 Y51.3381 
G01 X11.4994 Y51.2623 
G01 X11.3620 Y51.1624 
G01 X11.3348 Y51.1352 
G01 X10.9845 Y50.9901 
G01 X10.6055 Y50.9901 
G01 X10.2552 Y51.1352 
G01 X10.2280 Y51.1624 
G01 X10.0906 Y51.2622 
G01 X9.9392 Y51.3394 
G01 X9.7777 Y51.3918 
G01 X9.7181 Y51.4013 
G01 X9.6099 Y51.4184 
G01 X9.4401 Y51.4184 
G01 X9.3091 Y51.3977 
G01 X9.2723 Y51.3918 
G01 X9.1976 Y51.3676 
G01 X9.1108 Y51.3394 
G01 X9.1082 Y51.3381 
G01 X8.9594 Y51.2623 
G01 X8.8220 Y51.1624 
G01 X8.7948 Y51.1352 
G01 X8.4445 Y50.9901 
G01 X8.0655 Y50.9901 
G01 X7.7152 Y51.1352 
G01 X7.4472 Y51.4032 
G01 X7.3021 Y51.7535 
G01 X7.3021 Y53.2217 
G01 X7.2755 Y53.3895 
G01 X7.2230 Y53.5510 
G01 X7.1459 Y53.7024 
G01 X7.0461 Y53.8398 
G01 X6.9260 Y53.9599 
G01 X6.7886 Y54.0597 
G01 X6.6372 Y54.1368 
G01 X6.4757 Y54.1893 
G01 X6.3079 Y54.2159 
G01 X2.6583 Y54.2159 
G01 X2.4905 Y54.1893 
G01 X2.3290 Y54.1368 
G01 X2.1776 Y54.0597 
G01 X2.0402 Y53.9599 
G01 X1.9201 Y53.8398 
G01 X1.8203 Y53.7024 
G01 X1.7432 Y53.5510 
G01 X1.6907 Y53.3895 
G01 X1.6641 Y53.2217 
G01 X1.6641 Y3.9283 
G01 X1.6907 Y3.7605 
G01 X1.7432 Y3.5990 
G01 X1.8203 Y3.4476 
G01 X1.9201 Y3.3102 
G00 Z2.0000  F3000
G00 X7.4788 Y3.2681  F3000
G01 Z-0.2000 F200.00 
G01 X7.5746 Y3.1246 F500.00 
G01 X7.6966 Y3.0026 
G01 X7.8401 Y2.9068 
G01 X7.9995 Y2.8408 
G01 X8.1687 Y2.8071 
G01 X8.3413 Y2.8071 
G01 X8.5105 Y2.8408 
G01 X8.6699 Y2.9068 
G01 X8.8134 Y3.0026 
G01 X8.9354 Y3.1246 
G01 X9.0312 Y3.2681 
G01 X9.0972 Y3.4275 
G01 X9.1309 Y3.5967 
G01 X9.1309 Y5.2933 
G01 X9.0972 Y5.4625 
G01 X9.0312 Y5.6219 
G01 X8.9354 Y5.7654 
G01 X8.8134 Y5.8874 
G01 X8.6699 Y5.9832 
G01 X8.5105 Y6.0492 
G01 X8.3413 Y6.0829 
G01 X8.1687 Y6.0829 
G01 X7.9995 Y6.0492 
G01 X7.8401 Y5.9832 
G01 X7.6966 Y5.8874 
G01 X7.5746 Y5.7654 
G01 X7.4788 Y5.6219 
G01 X7.4128 Y5.4625 
G01 X7.3791 Y5.2933 
G01 X7.3791 Y3.5967 
G01 X7.4128 Y3.4275 
G01 X7.4788 Y3.2681 
G00 Z2.0000  F3000
G00 X10.0188 Y3.2681  F3000
G01 Z-0.2000 F200.00 
G01 X10.1146 Y3.1246 F500.00 
G01 X10.2366 Y3.0026 
G01 X10.3801 Y2.9068 
G01 X10.5395 Y2.8408 
G01 X10.7087 Y2.8071 
G01 X10.8813 Y2.8071 
G01 X11.0505 Y2.8408 
G01 X11.2099 Y2.9068 
G01 X11.3534 Y3.0026 
G01 X11.4754 Y3.1246 
G01 X11.5712 Y3.2681 
G01 X11.6372 Y3.4275 
G01 X11.6709 Y3.5967 
G01 X11.6709 Y5.2933 
G01 X11.6372 Y5.4625 
G01 X11.5712 Y5.6219 
G01 X11.4754 Y5.7654 
G01 X11.3534 Y5.8874 
G01 X11.2099 Y5.9832 
G01 X11.0505 Y6.0492 
G01 X10.8813 Y6.0829 
G01 X10.7087 Y6.0829 
G01 X10.5395 Y6.0492 
G01 X10.3801 Y5.9832 
G01 X10.2366 Y5.8874 
G01 X10.1146 Y5.7654 
G01 X10.0188 Y5.6219 
G01 X9.9528 Y5.4625 
G01 X9.9191 Y5.2933 
G01 X9.9191 Y3.5967 
G01 X9.9528 Y3.4275 
G01 X10.0188 Y3.2681 
G00 Z2.0000  F3000
G00 X12.5588 Y3.2681  F3000
G01 Z-0.2000 F200.00 
G01 X12.6546 Y3.1246 F500.00 
G01 X12.7766 Y3.0026 
G01 X12.9201 Y2.9068 
G01 X13.0795 Y2.8408 
G01 X13.2487 Y2.8071 
G01 X13.4213 Y2.8071 
G01 X13.5905 Y2.8408 
G01 X13.7499 Y2.9068 
G01 X13.8934 Y3.0026 
G01 X14.0154 Y3.1246 
G01 X14.1112 Y3.2681 
G01 X14.1772 Y3.4275 
G01 X14.2109 Y3.5967 
G01 X14.2109 Y5.2933 
G01 X14.2044 Y5.3260 
G01 X14.2505 Y5.4373 
G01 X14.2871 Y5.6212 
G01 X14.2871 Y7.0788 
G01 X14.2505 Y7.2627 
G01 X14.1787 Y7.4360 
G01 X14.0745 Y7.5919 
G01 X8.5551 Y13.1114 
G01 X8.6375 Y13.1278 
G01 X8.7969 Y13.1938 
G01 X8.9404 Y13.2896 
G01 X9.0624 Y13.4116 
G01 X9.1582 Y13.5551 
G01 X9.2242 Y13.7145 
G01 X9.2579 Y13.8837 
G01 X9.2579 Y14.0563 
G01 X9.2242 Y14.2255 
G01 X9.1582 Y14.3849 
G01 X9.0624 Y14.5284 
G01 X8.9404 Y14.6504 
G01 X8.7969 Y14.7462 
G01 X8.6375 Y14.8122 
G01 X8.4683 Y14.8459 
G01 X6.7717 Y14.8459 
G01 X6.6025 Y14.8122 
G01 X6.4431 Y14.7462 
G01 X6.2996 Y14.6504 
G01 X6.1776 Y14.5284 
G01 X6.0818 Y14.3849 
G01 X6.0158 Y14.2255 
G01 X5.9821 Y14.0563 
G01 X5.9821 Y13.8837 
G01 X6.0158 Y13.7145 
G01 X6.0818 Y13.5551 
G01 X6.1776 Y13.4116 
G01 X6.2996 Y13.2896 
G01 X6.4431 Y13.1938 
G01 X6.6025 Y13.1278 
G01 X6.7541 Y13.0976 
G01 X6.7045 Y12.9777 
G01 X6.6679 Y12.7938 
G01 X6.6679 Y12.6062 
G01 X6.7045 Y12.4223 
G01 X6.7763 Y12.2490 
G01 X6.8805 Y12.0931 
G01 X12.3829 Y6.5906 
G01 X12.3829 Y5.6212 
G01 X12.4195 Y5.4373 
G01 X12.4656 Y5.3260 
G01 X12.4591 Y5.2933 
G01 X12.4591 Y3.5967 
G01 X12.4928 Y3.4275 
G01 X12.5588 Y3.2681 
G00 Z2.0000  F3000
G00 X15.0988 Y3.2681  F3000
G01 Z-0.2000 F200.00 
G01 X15.1946 Y3.1246 F500.00 
G01 X15.3166 Y3.0026 
G01 X15.4601 Y2.9068 
G01 X15.6195 Y2.8408 
G01 X15.7887 Y2.8071 
G01 X15.9613 Y2.8071 
G01 X16.1305 Y2.8408 
G01 X16.2899 Y2.9068 
G01 X16.4334 Y3.0026 
G01 X16.5554 Y3.1246 
G01 X16.6512 Y3.2681 
G01 X16.7172 Y3.4275 
G01 X16.7509 Y3.5967 
G01 X16.7509 Y5.2933 
G01 X16.7172 Y5.4625 
G01 X16.6512 Y5.6219 
G01 X16.6239 Y5.6628 
G01 X16.6239 Y5.7571 
G01 X16.7187 Y5.8990 
G01 X16.7905 Y6.0723 
G01 X16.8271 Y6.2562 
G01 X16.8271 Y10.4006 
G01 X22.8319 Y16.4055 
G01 X22.9645 Y16.5381 
G01 X23.0687 Y16.6940 
G01 X23.1405 Y16.8673 
G01 X23.1771 Y17.0512 
G01 X23.1771 Y19.1438 
G01 X23.1405 Y19.3277 
G01 X23.0687 Y19.5010 
G01 X22.9645 Y19.6569 
G01 X22.8319 Y19.7895 
G01 X22.6760 Y19.8937 
G01 X22.6437 Y19.9071 
G01 X22.6437 Y21.5851 
G01 X22.6389 Y21.6030 
G01 X22.6389 Y22.3527 
G01 X22.6216 Y22.3945 
G01 X22.5895 Y22.4266 
G01 X22.5477 Y22.4439 
G01 X21.9023 Y22.4439 
G01 X21.8605 Y22.4266 
G01 X21.8284 Y22.3945 
G01 X21.8111 Y22.3527 
G01 X21.8111 Y21.6030 
G01 X21.8063 Y21.5851 
G01 X21.8063 Y19.9071 
G01 X21.7740 Y19.8937 
G01 X21.6181 Y19.7895 
G01 X21.4855 Y19.6569 
G01 X21.3813 Y19.5010 
G01 X21.3095 Y19.3277 
G01 X21.2729 Y19.1438 
G01 X21.2729 Y17.5394 
G01 X15.1355 Y11.4019 
G01 X15.0313 Y11.2460 
G01 X14.9595 Y11.0727 
G01 X14.9229 Y10.8888 
G01 X14.9229 Y6.2562 
G01 X14.9595 Y6.0723 
G01 X15.0313 Y5.8990 
G01 X15.1261 Y5.7571 
G01 X15.1261 Y5.6628 
G01 X15.0988 Y5.6219 
G01 X15.0328 Y5.4625 
G01 X14.9991 Y5.2933 
G01 X14.9991 Y3.5967 
G01 X15.0328 Y3.4275 
G01 X15.0988 Y3.2681 
G00 Z2.0000  F3000
G00 X17.6388 Y3.2681  F3000
G01 Z-0.2000 F200.00 
G01 X17.7346 Y3.1246 F500.00 
G01 X17.8566 Y3.0026 
G01 X18.0001 Y2.9068 
G01 X18.1595 Y2.8408 
G01 X18.3287 Y2.8071 
G01 X18.5013 Y2.8071 
G01 X18.6705 Y2.8408 
G01 X18.8299 Y2.9068 
G01 X18.9734 Y3.0026 
G01 X19.0954 Y3.1246 
G01 X19.1912 Y3.2681 
G01 X19.2572 Y3.4275 
G01 X19.2909 Y3.5967 
G01 X19.2909 Y5.2933 
G01 X19.2844 Y5.3260 
G01 X19.3305 Y5.4373 
G01 X19.3671 Y5.6212 
G01 X19.3671 Y8.4956 
G01 X26.6419 Y15.7705 
G01 X26.7745 Y15.9031 
G01 X26.8787 Y16.0590 
G01 X26.9505 Y16.2323 
G01 X26.9871 Y16.4162 
G01 X26.9871 Y22.3188 
G01 X26.9505 Y22.5027 
G01 X26.8787 Y22.6760 
G01 X26.7745 Y22.8319 
G01 X24.1019 Y25.5045 
G01 X23.9460 Y25.6087 
G01 X23.7727 Y25.6805 
G01 X23.5888 Y25.7171 
G01 X23.4012 Y25.7171 
G01 X23.2173 Y25.6805 
G01 X23.0440 Y25.6087 
G01 X22.8881 Y25.5045 
G01 X22.8003 Y25.4168 
G01 X22.6437 Y25.5734 
G01 X22.6437 Y26.7851 
G01 X22.6389 Y26.8030 
G01 X22.6389 Y27.5527 
G01 X22.6216 Y27.5945 
G01 X22.5895 Y27.6266 
G01 X22.5477 Y27.6439 
G01 X21.9023 Y27.6439 
G01 X21.8605 Y27.6266 
G01 X21.8284 Y27.5945 
G01 X21.8111 Y27.5527 
G01 X21.8111 Y26.8030 
G01 X21.8063 Y26.7851 
G01 X21.8063 Y25.3449 
G01 X21.8348 Y25.2384 
G01 X21.8900 Y25.1429 
G01 X21.9679 Y25.0650 
G01 X22.6029 Y24.4300 
G01 X22.6513 Y24.3140 
G01 X22.7555 Y24.1581 
G01 X25.0829 Y21.8306 
G01 X25.0829 Y16.9044 
G01 X17.6755 Y9.4969 
G01 X17.5713 Y9.3410 
G01 X17.4995 Y9.1677 
G01 X17.4629 Y8.9838 
G01 X17.4629 Y5.6212 
G01 X17.4995 Y5.4373 
G01 X17.5456 Y5.3260 
G01 X17.5391 Y5.2933 
G01 X17.5391 Y3.5967 
G01 X17.5728 Y3.4275 
G01 X17.6388 Y3.2681 
G00 Z2.0000  F3000
G00 X20.1788 Y3.2681  F3000
G01 Z-0.2000 F200.00 
G01 X20.2746 Y3.1246 F500.00 
G01 X20.3966 Y3.0026 
G01 X20.5401 Y2.9068 
G01 X20.6995 Y2.8408 
G01 X20.8687 Y2.8071 
G01 X21.0413 Y2.8071 
G01 X21.2105 Y2.8408 
G01 X21.3699 Y2.9068 
G01 X21.5134 Y3.0026 
G01 X21.6354 Y3.1246 
G01 X21.7312 Y3.2681 
G01 X21.7972 Y3.4275 
G01 X21.8309 Y3.5967 
G01 X21.8309 Y5.2933 
G01 X21.8244 Y5.3260 
G01 X21.8705 Y5.4373 
G01 X21.9071 Y5.6212 
G01 X21.9071 Y7.2256 
G01 X29.8169 Y15.1355 
G01 X29.9495 Y15.2681 
G01 X30.0537 Y15.4240 
G01 X30.1255 Y15.5973 
G01 X30.1621 Y15.7812 
G01 X30.1621 Y25.6406 
G01 X32.9919 Y28.4705 
G01 X33.1245 Y28.6031 
G01 X33.2287 Y28.7590 
G01 X33.3005 Y28.9323 
G01 X33.3371 Y29.1162 
G01 X33.3371 Y35.6538 
G01 X33.3005 Y35.8377 
G01 X33.2287 Y36.0110 
G01 X33.1245 Y36.1669 
G01 X28.2571 Y41.0344 
G01 X28.2571 Y44.1711 
G01 X29.5677 Y44.1711 
G01 X29.6095 Y44.1884 
G01 X29.6416 Y44.2205 
G01 X29.6589 Y44.2623 
G01 X29.6589 Y45.9077 
G01 X29.6416 Y45.9495 
G01 X29.6095 Y45.9816 
G01 X29.5677 Y45.9989 
G01 X28.2223 Y45.9989 
G01 X28.2177 Y46.0005 
G01 X28.0338 Y46.0371 
G01 X25.3062 Y46.0371 
G01 X25.1223 Y46.0005 
G01 X24.9490 Y45.9287 
G01 X24.7931 Y45.8245 
G01 X24.3706 Y45.4021 
G01 X24.0362 Y45.4021 
G01 X23.8523 Y45.3655 
G01 X23.6790 Y45.2937 
G01 X23.5231 Y45.1895 
G01 X23.3905 Y45.0569 
G01 X23.2863 Y44.9010 
G01 X23.2502 Y44.8139 
G01 X22.4023 Y44.8139 
G01 X22.3605 Y44.7966 
G01 X22.3284 Y44.7645 
G01 X22.3111 Y44.7227 
G01 X22.3111 Y44.1773 
G01 X22.3284 Y44.1355 
G01 X22.3605 Y44.1034 
G01 X22.4023 Y44.0861 
G01 X23.2502 Y44.0861 
G01 X23.2863 Y43.9990 
G01 X23.3905 Y43.8431 
G01 X23.5231 Y43.7105 
G01 X23.6790 Y43.6063 
G01 X23.8523 Y43.5345 
G01 X24.0362 Y43.4979 
G01 X24.8588 Y43.4979 
G01 X25.0427 Y43.5345 
G01 X25.2160 Y43.6063 
G01 X25.3719 Y43.7105 
G01 X25.5045 Y43.8431 
G01 X25.7944 Y44.1329 
G01 X26.3529 Y44.1329 
G01 X26.3529 Y40.5462 
G01 X26.3895 Y40.3623 
G01 X26.4613 Y40.1890 
G01 X26.5655 Y40.0331 
G01 X26.6981 Y39.9005 
G01 X31.4329 Y35.1656 
G01 X31.4329 Y29.6044 
G01 X28.4705 Y26.6419 
G01 X28.3663 Y26.4860 
G01 X28.2945 Y26.3127 
G01 X28.2579 Y26.1288 
G01 X28.2579 Y16.2694 
G01 X20.2155 Y8.2269 
G01 X20.1113 Y8.0710 
G01 X20.0395 Y7.8977 
G01 X20.0029 Y7.7138 
G01 X20.0029 Y5.6212 
G01 X20.0395 Y5.4373 
G01 X20.0856 Y5.3260 
G01 X20.0791 Y5.2933 
G01 X20.0791 Y3.5967 
G01 X20.1128 Y3.4275 
G01 X20.1788 Y3.2681 
G00 Z2.0000  F3000
G00 X22.7188 Y3.2681  F3000
G01 Z-0.2000 F200.00 
G01 X22.8146 Y3.1246 F500.00 
G01 X22.9366 Y3.0026 
G01 X23.0801 Y2.9068 
G01 X23.2395 Y2.8408 
G01 X23.4087 Y2.8071 
G01 X23.5813 Y2.8071 
G01 X23.7505 Y2.8408 
G01 X23.9099 Y2.9068 
G01 X24.0534 Y3.0026 
G01 X24.1754 Y3.1246 
G01 X24.2712 Y3.2681 
G01 X24.3372 Y3.4275 
G01 X24.3709 Y3.5967 
G01 X24.3709 Y5.2933 
G01 X24.3644 Y5.3260 
G01 X24.4105 Y5.4373 
G01 X24.4471 Y5.6212 
G01 X24.4471 Y5.9556 
G01 X32.9919 Y14.5005 
G01 X33.1245 Y14.6331 
G01 X33.2287 Y14.7890 
G01 X33.3005 Y14.9623 
G01 X33.3371 Y15.1462 
G01 X33.3371 Y17.4629 
G01 X34.9163 Y17.4629 
G01 X35.0573 Y17.4045 
G01 X35.2412 Y17.3679 
G01 X42.2288 Y17.3679 
G01 X42.4127 Y17.4045 
G01 X42.5860 Y17.4763 
G01 X42.7419 Y17.5805 
G01 X42.7676 Y17.6061 
G01 X43.7577 Y17.6061 
G01 X43.7995 Y17.6234 
G01 X43.8316 Y17.6555 
G01 X43.8489 Y17.6973 
G01 X43.8489 Y18.9427 
G01 X43.8316 Y18.9845 
G01 X43.7995 Y19.0166 
G01 X43.7577 Y19.0339 
G01 X42.7676 Y19.0339 
G01 X42.7419 Y19.0595 
G01 X42.5860 Y19.1637 
G01 X42.4127 Y19.2355 
G01 X42.2288 Y19.2721 
G01 X35.6587 Y19.2721 
G01 X35.5177 Y19.3305 
G01 X35.3338 Y19.3671 
G01 X32.2912 Y19.3671 
G01 X32.1073 Y19.3305 
G01 X31.9340 Y19.2587 
G01 X31.7781 Y19.1545 
G01 X31.6455 Y19.0219 
G01 X31.5413 Y18.8660 
G01 X31.4695 Y18.6927 
G01 X31.4329 Y18.5088 
G01 X31.4329 Y15.6344 
G01 X22.7555 Y6.9569 
G01 X22.6513 Y6.8010 
G01 X22.5795 Y6.6277 
G01 X22.5429 Y6.4438 
G01 X22.5429 Y5.6212 
G01 X22.5795 Y5.4373 
G01 X22.6256 Y5.3260 
G01 X22.6191 Y5.2933 
G01 X22.6191 Y3.5967 
G01 X22.6528 Y3.4275 
G01 X22.7188 Y3.2681 
G00 Z2.0000  F3000
G00 X25.2588 Y3.2681  F3000
G01 Z-0.2000 F200.00 
G01 X25.3546 Y3.1246 F500.00 
G01 X25.4766 Y3.0026 
G01 X25.6201 Y2.9068 
G01 X25.7795 Y2.8408 
G01 X25.9487 Y2.8071 
G01 X26.1213 Y2.8071 
G01 X26.2905 Y2.8408 
G01 X26.4499 Y2.9068 
G01 X26.5934 Y3.0026 
G01 X26.7154 Y3.1246 
G01 X26.8112 Y3.2681 
G01 X26.8772 Y3.4275 
G01 X26.9109 Y3.5967 
G01 X26.9109 Y4.7922 
G01 X26.9477 Y4.7995 
G01 X27.1210 Y4.8713 
G01 X27.2769 Y4.9755 
G01 X36.5894 Y14.2879 
G01 X47.7188 Y14.2879 
G01 X47.9027 Y14.3245 
G01 X48.0760 Y14.3963 
G01 X48.2319 Y14.5005 
G01 X51.1944 Y17.4629 
G01 X54.6013 Y17.4629 
G01 X54.7423 Y17.4045 
G01 X54.9262 Y17.3679 
G01 X61.9138 Y17.3679 
G01 X62.0977 Y17.4045 
G01 X62.2710 Y17.4763 
G01 X62.4269 Y17.5805 
G01 X62.4526 Y17.6061 
G01 X63.4427 Y17.6061 
G01 X63.4845 Y17.6234 
G01 X63.5166 Y17.6555 
G01 X63.5339 Y17.6973 
G01 X63.5339 Y18.9427 
G01 X63.5166 Y18.9845 
G01 X63.4845 Y19.0166 
G01 X63.4427 Y19.0339 
G01 X62.4526 Y19.0339 
G01 X62.4269 Y19.0595 
G01 X62.2710 Y19.1637 
G01 X62.0977 Y19.2355 
G01 X61.9138 Y19.2721 
G01 X55.3437 Y19.2721 
G01 X55.2027 Y19.3305 
G01 X55.0188 Y19.3671 
G01 X50.7062 Y19.3671 
G01 X50.5223 Y19.3305 
G01 X50.3490 Y19.2587 
G01 X50.1931 Y19.1545 
G01 X50.0605 Y19.0219 
G01 X47.2306 Y16.1921 
G01 X36.1012 Y16.1921 
G01 X35.9173 Y16.1555 
G01 X35.7440 Y16.0837 
G01 X35.5881 Y15.9795 
G01 X35.4555 Y15.8469 
G01 X25.9305 Y6.3219 
G01 X25.8263 Y6.1660 
G01 X25.7776 Y6.0484 
G01 X25.6201 Y5.9832 
G01 X25.4766 Y5.8874 
G01 X25.3546 Y5.7654 
G01 X25.2588 Y5.6219 
G01 X25.1928 Y5.4625 
G01 X25.1591 Y5.2933 
G01 X25.1591 Y3.5967 
G01 X25.1928 Y3.4275 
G01 X25.2588 Y3.2681 
G00 Z2.0000  F3000
G00 X29.0688 Y3.2681  F3000
G01 Z-0.2000 F200.00 
G01 X29.1646 Y3.1246 F500.00 
G01 X29.2866 Y3.0026 
G01 X29.4301 Y2.9068 
G01 X29.5895 Y2.8408 
G01 X29.7587 Y2.8071 
G01 X29.9313 Y2.8071 
G01 X30.1005 Y2.8408 
G01 X30.2599 Y2.9068 
G01 X30.4034 Y3.0026 
G01 X30.5254 Y3.1246 
G01 X30.6212 Y3.2681 
G01 X30.6872 Y3.4275 
G01 X30.7209 Y3.5967 
G01 X30.7209 Y5.2933 
G01 X30.6872 Y5.4625 
G01 X30.6212 Y5.6219 
G01 X30.5254 Y5.7654 
G01 X30.4034 Y5.8874 
G01 X30.2599 Y5.9832 
G01 X30.1005 Y6.0492 
G01 X29.9313 Y6.0829 
G01 X29.7587 Y6.0829 
G01 X29.5895 Y6.0492 
G01 X29.4301 Y5.9832 
G01 X29.2866 Y5.8874 
G01 X29.1646 Y5.7654 
G01 X29.0688 Y5.6219 
G01 X29.0028 Y5.4625 
G01 X28.9691 Y5.2933 
G01 X28.9691 Y3.5967 
G01 X29.0028 Y3.4275 
G01 X29.0688 Y3.2681 
G00 Z2.0000  F3000
G00 X31.6088 Y3.2681  F3000
G01 Z-0.2000 F200.00 
G01 X31.7046 Y3.1246 F500.00 
G01 X31.8266 Y3.0026 
G01 X31.9701 Y2.9068 
G01 X32.1295 Y2.8408 
G01 X32.2987 Y2.8071 
G01 X32.4713 Y2.8071 
G01 X32.6405 Y2.8408 
G01 X32.7999 Y2.9068 
G01 X32.9434 Y3.0026 
G01 X33.0654 Y3.1246 
G01 X33.1612 Y3.2681 
G01 X33.2272 Y3.4275 
G01 X33.2609 Y3.5967 
G01 X33.2609 Y5.2933 
G01 X33.2272 Y5.4625 
G01 X33.1612 Y5.6219 
G01 X33.0654 Y5.7654 
G01 X32.9434 Y5.8874 
G01 X32.7999 Y5.9832 
G01 X32.6405 Y6.0492 
G01 X32.4713 Y6.0829 
G01 X32.2987 Y6.0829 
G01 X32.1295 Y6.0492 
G01 X31.9701 Y5.9832 
G01 X31.8266 Y5.8874 
G01 X31.7046 Y5.7654 
G01 X31.6088 Y5.6219 
G01 X31.5428 Y5.4625 
G01 X31.5091 Y5.2933 
G01 X31.5091 Y3.5967 
G01 X31.5428 Y3.4275 
G01 X31.6088 Y3.2681 
G00 Z2.0000  F3000
G00 X34.1488 Y3.2681  F3000
G01 Z-0.2000 F200.00 
G01 X34.2446 Y3.1246 F500.00 
G01 X34.3666 Y3.0026 
G01 X34.5101 Y2.9068 
G01 X34.6695 Y2.8408 
G01 X34.8387 Y2.8071 
G01 X35.0113 Y2.8071 
G01 X35.1805 Y2.8408 
G01 X35.3399 Y2.9068 
G01 X35.4834 Y3.0026 
G01 X35.6054 Y3.1246 
G01 X35.7012 Y3.2681 
G01 X35.7672 Y3.4275 
G01 X35.8009 Y3.5967 
G01 X35.8009 Y5.2933 
G01 X35.7672 Y5.4625 
G01 X35.7012 Y5.6219 
G01 X35.6054 Y5.7654 
G01 X35.4834 Y5.8874 
G01 X35.3399 Y5.9832 
G01 X35.1805 Y6.0492 
G01 X35.0113 Y6.0829 
G01 X34.8387 Y6.0829 
G01 X34.6695 Y6.0492 
G01 X34.5101 Y5.9832 
G01 X34.3666 Y5.8874 
G01 X34.2446 Y5.7654 
G01 X34.1488 Y5.6219 
G01 X34.0828 Y5.4625 
G01 X34.0491 Y5.2933 
G01 X34.0491 Y3.5967 
G01 X34.0828 Y3.4275 
G01 X34.1488 Y3.2681 
G00 Z2.0000  F3000
G00 X36.6888 Y3.2681  F3000
G01 Z-0.2000 F200.00 
G01 X36.7846 Y3.1246 F500.00 
G01 X36.9066 Y3.0026 
G01 X37.0501 Y2.9068 
G01 X37.2095 Y2.8408 
G01 X37.3787 Y2.8071 
G01 X37.5513 Y2.8071 
G01 X37.7205 Y2.8408 
G01 X37.8799 Y2.9068 
G01 X38.0234 Y3.0026 
G01 X38.1454 Y3.1246 
G01 X38.2412 Y3.2681 
G01 X38.3072 Y3.4275 
G01 X38.3409 Y3.5967 
G01 X38.3409 Y5.2933 
G01 X38.3072 Y5.4625 
G01 X38.2412 Y5.6219 
G01 X38.1454 Y5.7654 
G01 X38.0234 Y5.8874 
G01 X37.8799 Y5.9832 
G01 X37.7205 Y6.0492 
G01 X37.5513 Y6.0829 
G01 X37.3787 Y6.0829 
G01 X37.2095 Y6.0492 
G01 X37.0501 Y5.9832 
G01 X36.9066 Y5.8874 
G01 X36.7846 Y5.7654 
G01 X36.6888 Y5.6219 
G01 X36.6228 Y5.4625 
G01 X36.5891 Y5.2933 
G01 X36.5891 Y3.5967 
G01 X36.6228 Y3.4275 
G01 X36.6888 Y3.2681 
G00 Z2.0000  F3000
G00 X39.2288 Y3.2681  F3000
G01 Z-0.2000 F200.00 
G01 X39.3246 Y3.1246 F500.00 
G01 X39.4466 Y3.0026 
G01 X39.5901 Y2.9068 
G01 X39.7495 Y2.8408 
G01 X39.9187 Y2.8071 
G01 X40.0913 Y2.8071 
G01 X40.2605 Y2.8408 
G01 X40.4199 Y2.9068 
G01 X40.5634 Y3.0026 
G01 X40.6854 Y3.1246 
G01 X40.7812 Y3.2681 
G01 X40.8472 Y3.4275 
G01 X40.8809 Y3.5967 
G01 X40.8809 Y5.2933 
G01 X40.8472 Y5.4625 
G01 X40.7812 Y5.6219 
G01 X40.6854 Y5.7654 
G01 X40.5634 Y5.8874 
G01 X40.4199 Y5.9832 
G01 X40.2605 Y6.0492 
G01 X40.0913 Y6.0829 
G01 X39.9187 Y6.0829 
G01 X39.7495 Y6.0492 
G01 X39.5901 Y5.9832 
G01 X39.4466 Y5.8874 
G01 X39.3246 Y5.7654 
G01 X39.2288 Y5.6219 
G01 X39.1628 Y5.4625 
G01 X39.1291 Y5.2933 
G01 X39.1291 Y3.5967 
G01 X39.1628 Y3.4275 
G01 X39.2288 Y3.2681 
G00 Z2.0000  F3000
G00 X41.7688 Y3.2681  F3000
G01 Z-0.2000 F200.00 
G01 X41.8646 Y3.1246 F500.00 
G01 X41.9866 Y3.0026 
G01 X42.1301 Y2.9068 
G01 X42.2895 Y2.8408 
G01 X42.4587 Y2.8071 
G01 X42.6313 Y2.8071 
G01 X42.8005 Y2.8408 
G01 X42.9599 Y2.9068 
G01 X43.1034 Y3.0026 
G01 X43.2254 Y3.1246 
G01 X43.3212 Y3.2681 
G01 X43.3872 Y3.4275 
G01 X43.4209 Y3.5967 
G01 X43.4209 Y5.2933 
G01 X43.3872 Y5.4625 
G01 X43.3212 Y5.6219 
G01 X43.2254 Y5.7654 
G01 X43.1034 Y5.8874 
G01 X42.9599 Y5.9832 
G01 X42.8005 Y6.0492 
G01 X42.6313 Y6.0829 
G01 X42.4587 Y6.0829 
G01 X42.2895 Y6.0492 
G01 X42.1301 Y5.9832 
G01 X41.9866 Y5.8874 
G01 X41.8646 Y5.7654 
G01 X41.7688 Y5.6219 
G01 X41.7028 Y5.4625 
G01 X41.6691 Y5.2933 
G01 X41.6691 Y3.5967 
G01 X41.7028 Y3.4275 
G01 X41.7688 Y3.2681 
G00 Z2.0000  F3000
G00 X44.3088 Y3.2681  F3000
G01 Z-0.2000 F200.00 
G01 X44.4046 Y3.1246 F500.00 
G01 X44.5266 Y3.0026 
G01 X44.6701 Y2.9068 
G01 X44.8295 Y2.8408 
G01 X44.9987 Y2.8071 
G01 X45.1713 Y2.8071 
G01 X45.3405 Y2.8408 
G01 X45.4999 Y2.9068 
G01 X45.6434 Y3.0026 
G01 X45.7654 Y3.1246 
G01 X45.8612 Y3.2681 
G01 X45.9272 Y3.4275 
G01 X45.9609 Y3.5967 
G01 X45.9609 Y3.8147 
G01 X46.0079 Y3.8795 
G01 X46.0851 Y4.0308 
G01 X46.1375 Y4.1923 
G01 X46.1641 Y4.3601 
G01 X46.1641 Y5.6943 
G01 X46.1960 Y5.6884 
G01 X46.2102 Y5.6880 
G01 X46.2243 Y5.6858 
G01 X46.2951 Y5.6858 
G01 X46.3658 Y5.6839 
G01 X46.3799 Y5.6858 
G01 X46.3941 Y5.6858 
G01 X46.4640 Y5.6969 
G01 X46.5342 Y5.7061 
G01 X46.5479 Y5.7101 
G01 X46.5619 Y5.7124 
G01 X46.6292 Y5.7342 
G01 X46.6971 Y5.7543 
G01 X46.7099 Y5.7605 
G01 X46.7234 Y5.7648 
G01 X46.7865 Y5.7970 
G01 X46.8504 Y5.8275 
G01 X46.8621 Y5.8355 
G01 X46.8748 Y5.8420 
G01 X46.9320 Y5.8835 
G01 X46.9904 Y5.9237 
G01 X47.0007 Y5.9335 
G01 X47.0122 Y5.9418 
G01 X47.0622 Y5.9918 
G01 X47.0874 Y6.0157 
G01 X47.4355 Y6.1599 
G01 X47.8145 Y6.1599 
G01 X48.1648 Y6.0148 
G01 X48.4328 Y5.7468 
G01 X48.5779 Y5.3965 
G01 X48.5779 Y3.9283 
G01 X48.6045 Y3.7605 
G01 X48.6570 Y3.5990 
G01 X48.7341 Y3.4476 
G01 X48.8339 Y3.3102 
G01 X48.9540 Y3.1901 
G01 X49.0914 Y3.0903 
G01 X49.2428 Y3.0132 
G01 X49.4043 Y2.9607 
G01 X49.5721 Y2.9341 
G01 X71.6367 Y2.9341 
G01 X71.8045 Y2.9607 
G01 X71.9660 Y3.0132 
G01 X72.1174 Y3.0903 
G01 X72.2548 Y3.1901 
G01 X72.3749 Y3.3102 
G01 X72.4747 Y3.4476 
G01 X72.5518 Y3.5990 
G01 X72.6043 Y3.7605 
G01 X72.6309 Y3.9283 
G01 X72.6309 Y53.2217 
G01 X72.6043 Y53.3895 
G01 X72.5518 Y53.5510 
G01 X72.4747 Y53.7024 
G01 X72.3749 Y53.8398 
G01 X72.2548 Y53.9599 
G01 X72.1174 Y54.0597 
G01 X71.9660 Y54.1368 
G01 X71.8045 Y54.1893 
G01 X71.6367 Y54.2159 
G01 X43.2221 Y54.2159 
G01 X43.0543 Y54.1893 
G01 X42.8928 Y54.1368 
G01 X42.7414 Y54.0597 
G01 X42.6040 Y53.9599 
G01 X42.4839 Y53.8398 
G01 X42.3841 Y53.7024 
G01 X42.3070 Y53.5510 
G01 X42.2545 Y53.3895 
G01 X42.2279 Y53.2217 
G01 X42.2279 Y51.7535 
G01 X42.0828 Y51.4032 
G01 X41.8148 Y51.1352 
G01 X41.4645 Y50.9901 
G01 X41.0855 Y50.9901 
G01 X40.7352 Y51.1352 
G01 X40.7080 Y51.1624 
G01 X40.5706 Y51.2622 
G01 X40.4192 Y51.3394 
G01 X40.2577 Y51.3918 
G01 X40.1981 Y51.4013 
G01 X40.0899 Y51.4184 
G01 X39.9201 Y51.4184 
G01 X39.7891 Y51.3977 
G01 X39.7523 Y51.3918 
G01 X39.6776 Y51.3676 
G01 X39.5908 Y51.3394 
G01 X39.5882 Y51.3381 
G01 X39.4394 Y51.2623 
G01 X39.3020 Y51.1624 
G01 X39.2748 Y51.1352 
G01 X38.9245 Y50.9901 
G01 X38.5455 Y50.9901 
G01 X38.1952 Y51.1352 
G01 X38.1680 Y51.1624 
G01 X38.0306 Y51.2622 
G01 X37.8792 Y51.3394 
G01 X37.7177 Y51.3918 
G01 X37.6581 Y51.4013 
G01 X37.5499 Y51.4184 
G01 X37.3801 Y51.4184 
G01 X37.2491 Y51.3977 
G01 X37.2123 Y51.3918 
G01 X37.1376 Y51.3676 
G01 X37.0508 Y51.3394 
G01 X37.0482 Y51.3381 
G01 X36.8994 Y51.2623 
G01 X36.7620 Y51.1624 
G01 X36.7348 Y51.1352 
G01 X36.3845 Y50.9901 
G01 X35.9386 Y50.9901 
G01 X35.9326 Y50.9915 
G01 X35.8901 Y50.9949 
G01 X35.8481 Y51.0015 
G01 X35.8056 Y51.0015 
G01 X35.7632 Y51.0049 
G01 X35.7208 Y51.0015 
G01 X35.6783 Y51.0015 
G01 X35.6363 Y50.9949 
G01 X35.5939 Y50.9915 
G01 X35.5525 Y50.9816 
G01 X35.5105 Y50.9750 
G01 X35.4701 Y50.9618 
G01 X35.4287 Y50.9519 
G01 X35.3894 Y50.9356 
G01 X35.3490 Y50.9225 
G01 X35.3111 Y50.9032 
G01 X35.2718 Y50.8869 
G01 X35.2355 Y50.8647 
G01 X35.1976 Y50.8454 
G01 X35.1633 Y50.8204 
G01 X35.1270 Y50.7982 
G01 X35.0946 Y50.7705 
G01 X35.0602 Y50.7455 
G01 X35.0302 Y50.7155 
G01 X34.9978 Y50.6879 
G01 X34.9702 Y50.6555 
G01 X34.9401 Y50.6254 
G01 X34.9151 Y50.5911 
G01 X34.8875 Y50.5587 
G01 X34.8653 Y50.5224 
G01 X34.8403 Y50.4880 
G01 X34.8210 Y50.4501 
G01 X34.7988 Y50.4139 
G01 X34.7825 Y50.3746 
G01 X34.7632 Y50.3367 
G01 X34.7500 Y50.2962 
G01 X34.7338 Y50.2570 
G01 X34.7238 Y50.2156 
G01 X34.7107 Y50.1751 
G01 X34.7040 Y50.1331 
G01 X34.6941 Y50.0918 
G01 X34.6908 Y50.0494 
G01 X34.6841 Y50.0074 
G01 X34.6841 Y49.9649 
G01 X34.6808 Y49.9225 
G01 X34.6841 Y49.8801 
G01 X34.6841 Y44.8803 
G01 X34.5274 Y44.5021 
G01 X34.2379 Y44.2126 
G01 X33.8597 Y44.0559 
G01 X31.5269 Y44.0559 
G01 X31.4911 Y44.0675 
G01 X31.4491 Y44.0742 
G01 X31.4078 Y44.0841 
G01 X31.3654 Y44.0874 
G01 X31.3234 Y44.0941 
G01 X31.2808 Y44.0941 
G01 X31.2384 Y44.0974 
G01 X31.1960 Y44.0941 
G01 X30.0545 Y44.0941 
G01 X30.0144 Y44.1037 
G01 X29.9242 Y44.1108 
G01 X29.8450 Y44.1171 
G01 X29.7509 Y44.1097 
G01 X29.6757 Y44.1037 
G01 X29.6355 Y44.0941 
G01 X29.3283 Y44.0941 
G01 X29.1605 Y44.0675 
G01 X28.9990 Y44.0150 
G01 X28.8476 Y43.9379 
G01 X28.7102 Y43.8381 
G01 X28.5901 Y43.7180 
G01 X28.4903 Y43.5806 
G01 X28.4132 Y43.4292 
G01 X28.3607 Y43.2677 
G01 X28.3341 Y43.0999 
G01 X28.3341 Y41.4283 
G01 X28.3607 Y41.2606 
G01 X28.4132 Y41.0990 
G01 X28.4903 Y40.9477 
G01 X28.5901 Y40.8103 
G01 X28.7102 Y40.6902 
G01 X33.2574 Y36.1429 
G01 X33.4141 Y35.7647 
G01 X33.4141 Y34.1904 
G01 X33.4407 Y34.0226 
G01 X33.4742 Y33.9195 
G01 X33.4932 Y33.8611 
G01 X33.5703 Y33.7097 
G01 X33.6701 Y33.5723 
G01 X33.7883 Y33.4541 
G01 X33.9276 Y33.3524 
G01 X34.0790 Y33.2753 
G01 X34.2405 Y33.2228 
G01 X34.3532 Y33.2049 
G01 X34.4083 Y33.1962 
G01 X34.5781 Y33.1962 
G01 X34.7459 Y33.2228 
G01 X34.8490 Y33.2563 
G01 X34.9074 Y33.2753 
G01 X35.0588 Y33.3524 
G01 X35.1962 Y33.4522 
G01 X35.3675 Y33.6235 
G01 X35.9044 Y33.8459 
G01 X62.5328 Y33.8459 
G01 X62.7006 Y33.8725 
G01 X62.8621 Y33.9250 
G01 X63.0135 Y34.0021 
G01 X63.1509 Y34.1019 
G01 X66.0899 Y37.0409 
G01 X66.1222 Y37.0685 
G01 X66.1498 Y37.1009 
G01 X66.1799 Y37.1309 
G01 X66.2049 Y37.1653 
G01 X66.2325 Y37.1977 
G01 X66.2548 Y37.2340 
G01 X66.2797 Y37.2683 
G01 X66.2990 Y37.3062 
G01 X66.3213 Y37.3425 
G01 X66.3375 Y37.3818 
G01 X66.3569 Y37.4197 
G01 X66.3700 Y37.4601 
G01 X66.3863 Y37.4994 
G01 X66.3962 Y37.5408 
G01 X66.4093 Y37.5812 
G01 X66.4160 Y37.6232 
G01 X66.4259 Y37.6646 
G01 X66.4293 Y37.7070 
G01 X66.4359 Y37.7490 
G01 X66.4359 Y37.7915 
G01 X66.4393 Y37.8339 
G01 X66.4359 Y37.8763 
G01 X66.4359 Y37.9188 
G01 X66.4293 Y37.9608 
G01 X66.4259 Y38.0033 
G01 X66.4160 Y38.0446 
G01 X66.4093 Y38.0866 
G01 X66.3962 Y38.1270 
G01 X66.3863 Y38.1684 
G01 X66.3700 Y38.2077 
G01 X66.3569 Y38.2481 
G01 X66.3376 Y38.2860 
G01 X66.2301 Y38.5455 
G01 X66.2301 Y38.9245 
G01 X66.3743 Y39.2726 
G01 X66.3981 Y39.2977 
G01 X66.4482 Y39.3478 
G01 X66.4566 Y39.3593 
G01 X66.4663 Y39.3696 
G01 X66.5064 Y39.4279 
G01 X66.5480 Y39.4852 
G01 X66.5545 Y39.4979 
G01 X66.5626 Y39.5096 
G01 X66.5930 Y39.5735 
G01 X66.6252 Y39.6366 
G01 X66.6295 Y39.6501 
G01 X66.6357 Y39.6629 
G01 X66.6558 Y39.7308 
G01 X66.6776 Y39.7981 
G01 X66.6799 Y39.8121 
G01 X66.6839 Y39.8258 
G01 X66.6931 Y39.8959 
G01 X66.7042 Y39.9659 
G01 X66.7042 Y39.9801 
G01 X66.7061 Y39.9942 
G01 X66.7042 Y40.0650 
G01 X66.7042 Y40.1357 
G01 X66.7020 Y40.1498 
G01 X66.7016 Y40.1640 
G01 X66.6957 Y40.1959 
G01 X69.1943 Y40.1959 
G01 X69.1884 Y40.1640 
G01 X69.1880 Y40.1498 
G01 X69.1858 Y40.1357 
G01 X69.1858 Y40.0650 
G01 X69.1839 Y39.9942 
G01 X69.1858 Y39.9801 
G01 X69.1858 Y39.9659 
G01 X69.1969 Y39.8959 
G01 X69.2061 Y39.8258 
G01 X69.2101 Y39.8121 
G01 X69.2124 Y39.7981 
G01 X69.2342 Y39.7308 
G01 X69.2543 Y39.6629 
G01 X69.2605 Y39.6501 
G01 X69.2648 Y39.6366 
G01 X69.2970 Y39.5735 
G01 X69.3274 Y39.5096 
G01 X69.3355 Y39.4979 
G01 X69.3420 Y39.4852 
G01 X69.3836 Y39.4279 
G01 X69.4236 Y39.3696 
G01 X69.4334 Y39.3593 
G01 X69.4418 Y39.3478 
G01 X69.4919 Y39.2977 
G01 X69.5157 Y39.2726 
G01 X69.6599 Y38.9245 
G01 X69.6599 Y38.5455 
G01 X69.4938 Y38.1444 
G01 X69.4730 Y38.1159 
G01 X69.4537 Y38.0780 
G01 X69.4315 Y38.0417 
G01 X69.4152 Y38.0024 
G01 X69.3959 Y37.9645 
G01 X69.3828 Y37.9241 
G01 X69.3665 Y37.8847 
G01 X69.3566 Y37.8434 
G01 X69.3434 Y37.8030 
G01 X69.3367 Y37.7609 
G01 X69.3268 Y37.7196 
G01 X69.3235 Y37.6772 
G01 X69.3168 Y37.6352 
G01 X69.3168 Y37.5927 
G01 X69.3135 Y37.5502 
G01 X69.3168 Y37.5079 
G01 X69.3168 Y37.4654 
G01 X69.3235 Y37.4234 
G01 X69.3268 Y37.3809 
G01 X69.3367 Y37.3396 
G01 X69.3434 Y37.2976 
G01 X69.3565 Y37.2571 
G01 X69.3665 Y37.2157 
G01 X69.3827 Y37.1765 
G01 X69.3959 Y37.1361 
G01 X69.4059 Y37.1164 
G01 X69.4059 Y36.5394 
G01 X69.1835 Y36.0025 
G01 X64.3275 Y31.1465 
G01 X63.7906 Y30.9241 
G01 X35.9044 Y30.9241 
G01 X35.3675 Y31.1465 
G01 X35.1962 Y31.3178 
G01 X35.0588 Y31.4176 
G01 X34.9074 Y31.4947 
G01 X34.8528 Y31.5125 
G01 X34.7459 Y31.5472 
G01 X34.5781 Y31.5738 
G01 X34.4083 Y31.5738 
G01 X34.3570 Y31.5657 
G01 X34.2405 Y31.5472 
G01 X34.0790 Y31.4947 
G01 X33.9276 Y31.4176 
G01 X33.7902 Y31.3178 
G01 X33.6701 Y31.1977 
G01 X33.5703 Y31.0603 
G01 X33.4932 Y30.9089 
G01 X33.4754 Y30.8543 
G01 X33.4407 Y30.7474 
G01 X33.4141 Y30.5796 
G01 X33.4141 Y29.0053 
G01 X33.2574 Y28.6271 
G01 X30.4951 Y25.8647 
G01 X30.3953 Y25.7273 
G01 X30.3182 Y25.5760 
G01 X30.2657 Y25.4144 
G01 X30.2391 Y25.2467 
G01 X30.2391 Y20.2974 
G01 X30.2358 Y20.2550 
G01 X30.2391 Y20.2126 
G01 X30.2391 Y20.1701 
G01 X30.2458 Y20.1281 
G01 X30.2491 Y20.0857 
G01 X30.2590 Y20.0443 
G01 X30.2657 Y20.0023 
G01 X30.2788 Y19.9619 
G01 X30.2887 Y19.9205 
G01 X30.3050 Y19.8812 
G01 X30.3182 Y19.8408 
G01 X30.3375 Y19.8029 
G01 X30.3537 Y19.7636 
G01 X30.3760 Y19.7273 
G01 X30.3953 Y19.6894 
G01 X30.4203 Y19.6551 
G01 X30.4425 Y19.6188 
G01 X30.4701 Y19.5864 
G01 X30.4951 Y19.5520 
G01 X30.5252 Y19.5220 
G01 X30.5528 Y19.4896 
G01 X30.5852 Y19.4620 
G01 X30.6152 Y19.4319 
G01 X30.6496 Y19.4069 
G01 X30.6820 Y19.3793 
G01 X30.7182 Y19.3571 
G01 X30.7526 Y19.3321 
G01 X30.7905 Y19.3128 
G01 X30.8268 Y19.2906 
G01 X30.8661 Y19.2743 
G01 X30.9040 Y19.2550 
G01 X30.9444 Y19.2418 
G01 X30.9837 Y19.2256 
G01 X31.0251 Y19.2156 
G01 X31.0655 Y19.2025 
G01 X31.1075 Y19.1958 
G01 X31.1489 Y19.1859 
G01 X31.1913 Y19.1826 
G01 X31.2333 Y19.1759 
G01 X31.2758 Y19.1759 
G01 X31.3182 Y19.1726 
G01 X31.3606 Y19.1759 
G01 X31.4031 Y19.1759 
G01 X31.4451 Y19.1826 
G01 X31.4875 Y19.1859 
G01 X31.5289 Y19.1958 
G01 X31.5709 Y19.2025 
G01 X31.6113 Y19.2156 
G01 X31.6527 Y19.2256 
G01 X31.6920 Y19.2418 
G01 X31.7324 Y19.2550 
G01 X31.7703 Y19.2743 
G01 X32.1803 Y19.4441 
G01 X33.4127 Y19.4441 
G01 X33.4967 Y19.4441 
G01 X33.5826 Y19.4441 
G01 X33.7053 Y19.4635 
G01 X33.7503 Y19.4707 
G01 X33.8766 Y19.5117 
G01 X33.9119 Y19.5232 
G01 X34.0324 Y19.5846 
G01 X34.0632 Y19.6003 
G01 X34.1741 Y19.6808 
G01 X34.2006 Y19.7001 
G01 X34.2801 Y19.7796 
G01 X34.3207 Y19.8202 
G01 X34.4045 Y19.9354 
G01 X34.4206 Y19.9576 
G01 X34.4787 Y20.0718 
G01 X34.4977 Y20.1090 
G01 X34.5296 Y20.2073 
G01 X34.5502 Y20.2705 
G01 X34.5646 Y20.3618 
G01 X34.5767 Y20.4383 
G01 X34.5767 Y20.5223 
G01 X34.5767 Y20.6081 
G01 X34.5573 Y20.7308 
G01 X34.5502 Y20.7759 
G01 X34.5092 Y20.9021 
G01 X34.4977 Y20.9374 
G01 X34.4363 Y21.0580 
G01 X34.4206 Y21.0888 
G01 X34.3400 Y21.1996 
G01 X34.3207 Y21.2262 
G01 X34.3060 Y21.2409 
G01 X34.9264 Y21.2409 
G01 X34.9204 Y21.2339 
G01 X34.8903 Y21.2038 
G01 X34.8653 Y21.1694 
G01 X34.8377 Y21.1370 
G01 X34.8155 Y21.1008 
G01 X34.7905 Y21.0664 
G01 X34.7712 Y21.0285 
G01 X34.7490 Y20.9922 
G01 X34.7327 Y20.9529 
G01 X34.7134 Y20.9150 
G01 X34.7002 Y20.8746 
G01 X34.6840 Y20.8353 
G01 X34.6740 Y20.7939 
G01 X34.6609 Y20.7535 
G01 X34.6542 Y20.7115 
G01 X34.6443 Y20.6701 
G01 X34.6410 Y20.6277 
G01 X34.6343 Y20.5857 
G01 X34.6343 Y20.5432 
G01 X34.6310 Y20.5008 
G01 X34.6343 Y20.4584 
G01 X34.6343 Y20.4159 
G01 X34.6410 Y20.3739 
G01 X34.6443 Y20.3315 
G01 X34.6542 Y20.2901 
G01 X34.6609 Y20.2481 
G01 X34.6740 Y20.2077 
G01 X34.6840 Y20.1663 
G01 X34.7002 Y20.1270 
G01 X34.7134 Y20.0866 
G01 X34.7327 Y20.0487 
G01 X34.7490 Y20.0094 
G01 X34.7712 Y19.9731 
G01 X34.7905 Y19.9352 
G01 X34.8155 Y19.9008 
G01 X34.8377 Y19.8646 
G01 X34.8653 Y19.8322 
G01 X34.8903 Y19.7978 
G01 X34.9204 Y19.7677 
G01 X34.9480 Y19.7354 
G01 X34.9804 Y19.7078 
G01 X35.0104 Y19.6777 
G01 X35.0448 Y19.6527 
G01 X35.0772 Y19.6251 
G01 X35.1135 Y19.6029 
G01 X35.1478 Y19.5779 
G01 X35.1857 Y19.5586 
G01 X35.2220 Y19.5363 
G01 X35.2613 Y19.5201 
G01 X35.2992 Y19.5008 
G01 X35.3396 Y19.4876 
G01 X35.4366 Y19.4475 
G01 X35.4745 Y19.4282 
G01 X35.5149 Y19.4150 
G01 X35.5542 Y19.3987 
G01 X35.5956 Y19.3888 
G01 X35.6360 Y19.3757 
G01 X35.6780 Y19.3690 
G01 X35.7194 Y19.3591 
G01 X35.7618 Y19.3558 
G01 X35.8038 Y19.3491 
G01 X35.8463 Y19.3491 
G01 X35.8887 Y19.3458 
G01 X35.9311 Y19.3491 
G01 X42.3397 Y19.3491 
G01 X42.6773 Y19.2093 
G01 X42.7152 Y19.1900 
G01 X42.7556 Y19.1768 
G01 X42.7949 Y19.1605 
G01 X42.8363 Y19.1506 
G01 X42.8767 Y19.1375 
G01 X42.9187 Y19.1308 
G01 X42.9601 Y19.1209 
G01 X43.0025 Y19.1176 
G01 X43.0445 Y19.1109 
G01 X43.0870 Y19.1109 
G01 X43.1294 Y19.1076 
G01 X43.1718 Y19.1109 
G01 X43.7730 Y19.1109 
G01 X43.8431 Y19.0818 
G01 X43.8968 Y19.0281 
G01 X43.9259 Y18.9580 
G01 X43.9259 Y17.6815 
G01 X43.9162 Y17.6413 
G01 X43.9031 Y17.6009 
G01 X43.8964 Y17.5589 
G01 X43.8865 Y17.5175 
G01 X43.8832 Y17.4751 
G01 X43.8765 Y17.4331 
G01 X43.8765 Y17.3906 
G01 X43.8732 Y17.3482 
G01 X43.8765 Y17.3058 
G01 X43.8765 Y17.2633 
G01 X43.8832 Y17.2213 
G01 X43.8865 Y17.1789 
G01 X43.8964 Y17.1375 
G01 X43.9031 Y17.0955 
G01 X43.9162 Y17.0551 
G01 X43.9262 Y17.0137 
G01 X43.9425 Y16.9744 
G01 X43.9556 Y16.9340 
G01 X43.9749 Y16.8961 
G01 X43.9912 Y16.8568 
G01 X44.0134 Y16.8205 
G01 X44.0327 Y16.7826 
G01 X44.0577 Y16.7483 
G01 X44.0799 Y16.7120 
G01 X44.1076 Y16.6796 
G01 X44.1325 Y16.6452 
G01 X44.1626 Y16.6152 
G01 X44.1902 Y16.5828 
G01 X44.2226 Y16.5552 
G01 X44.2526 Y16.5251 
G01 X44.2870 Y16.5001 
G01 X44.3194 Y16.4725 
G01 X44.3557 Y16.4503 
G01 X44.3901 Y16.4253 
G01 X44.4279 Y16.4060 
G01 X44.4642 Y16.3837 
G01 X44.5035 Y16.3675 
G01 X44.5414 Y16.3482 
G01 X44.5818 Y16.3350 
G01 X44.6211 Y16.3187 
G01 X44.6625 Y16.3088 
G01 X44.7029 Y16.2957 
G01 X44.7449 Y16.2890 
G01 X44.7863 Y16.2791 
G01 X44.8287 Y16.2758 
G01 X44.8707 Y16.2691 
G01 X44.9132 Y16.2691 
G01 X44.9556 Y16.2658 
G01 X44.9980 Y16.2691 
G01 X46.8367 Y16.2691 
G01 X47.0044 Y16.2957 
G01 X47.1660 Y16.3482 
G01 X47.3173 Y16.4253 
G01 X47.4547 Y16.5251 
G01 X47.5748 Y16.6452 
G01 X49.8358 Y18.9062 
G01 X50.2171 Y19.2874 
G01 X50.5953 Y19.4441 
G01 X53.0977 Y19.4441 
G01 X53.1817 Y19.4441 
G01 X53.2676 Y19.4441 
G01 X53.3105 Y19.4509 
G01 X53.4353 Y19.4707 
G01 X53.5303 Y19.5015 
G01 X53.5969 Y19.5232 
G01 X53.7482 Y19.6003 
G01 X53.8490 Y19.6735 
G01 X53.8856 Y19.7001 
G01 X54.0039 Y19.8183 
G01 X54.0998 Y19.9497 
G01 X54.1056 Y19.9576 
G01 X54.1827 Y20.1090 
G01 X54.2166 Y20.2135 
G01 X54.2352 Y20.2705 
G01 X54.2501 Y20.3650 
G01 X54.2617 Y20.4383 
G01 X54.2617 Y20.5223 
G01 X54.2617 Y20.6081 
G01 X54.2549 Y20.6511 
G01 X54.2352 Y20.7759 
G01 X54.2043 Y20.8709 
G01 X54.1827 Y20.9374 
G01 X54.1056 Y21.0888 
G01 X54.0324 Y21.1895 
G01 X54.0057 Y21.2262 
G01 X53.9910 Y21.2409 
G01 X54.6114 Y21.2409 
G01 X54.6054 Y21.2339 
G01 X54.5753 Y21.2038 
G01 X54.5503 Y21.1694 
G01 X54.5227 Y21.1370 
G01 X54.5005 Y21.1008 
G01 X54.4755 Y21.0664 
G01 X54.4562 Y21.0285 
G01 X54.4340 Y20.9922 
G01 X54.4177 Y20.9529 
G01 X54.3984 Y20.9150 
G01 X54.3852 Y20.8746 
G01 X54.3689 Y20.8353 
G01 X54.3590 Y20.7939 
G01 X54.3459 Y20.7535 
G01 X54.3392 Y20.7115 
G01 X54.3293 Y20.6701 
G01 X54.3260 Y20.6277 
G01 X54.3193 Y20.5857 
G01 X54.3193 Y20.5432 
G01 X54.3160 Y20.5008 
G01 X54.3193 Y20.4584 
G01 X54.3193 Y20.4159 
G01 X54.3260 Y20.3739 
G01 X54.3293 Y20.3315 
G01 X54.3392 Y20.2901 
G01 X54.3459 Y20.2481 
G01 X54.3590 Y20.2077 
G01 X54.3690 Y20.1663 
G01 X54.3852 Y20.1270 
G01 X54.3984 Y20.0866 
G01 X54.4177 Y20.0487 
G01 X54.4340 Y20.0094 
G01 X54.4562 Y19.9731 
G01 X54.4755 Y19.9352 
G01 X54.5005 Y19.9008 
G01 X54.5227 Y19.8646 
G01 X54.5503 Y19.8322 
G01 X54.5753 Y19.7978 
G01 X54.6054 Y19.7677 
G01 X54.6330 Y19.7354 
G01 X54.6654 Y19.7078 
G01 X54.6954 Y19.6777 
G01 X54.7298 Y19.6527 
G01 X54.7622 Y19.6251 
G01 X54.7985 Y19.6029 
G01 X54.8328 Y19.5779 
G01 X54.8707 Y19.5586 
G01 X54.9070 Y19.5363 
G01 X54.9463 Y19.5201 
G01 X54.9842 Y19.5008 
G01 X55.0246 Y19.4876 
G01 X55.1216 Y19.4475 
G01 X55.1595 Y19.4282 
G01 X55.1999 Y19.4150 
G01 X55.2392 Y19.3987 
G01 X55.2806 Y19.3888 
G01 X55.3210 Y19.3757 
G01 X55.3630 Y19.3690 
G01 X55.4044 Y19.3591 
G01 X55.4468 Y19.3557 
G01 X55.4888 Y19.3491 
G01 X55.5313 Y19.3491 
G01 X55.5737 Y19.3458 
G01 X55.6161 Y19.3491 
G01 X62.0247 Y19.3491 
G01 X62.3623 Y19.2093 
G01 X62.4002 Y19.1900 
G01 X62.4406 Y19.1768 
G01 X62.4799 Y19.1605 
G01 X62.5213 Y19.1506 
G01 X62.5617 Y19.1375 
G01 X62.6037 Y19.1308 
G01 X62.6451 Y19.1209 
G01 X62.6875 Y19.1176 
G01 X62.7295 Y19.1109 
G01 X62.7720 Y19.1109 
G01 X62.8144 Y19.1076 
G01 X62.8568 Y19.1109 
G01 X63.4580 Y19.1109 
G01 X63.5281 Y19.0818 
G01 X63.5818 Y19.0281 
G01 X63.6109 Y18.9580 
G01 X63.6109 Y17.6820 
G01 X63.5818 Y17.6119 
G01 X63.5281 Y17.5582 
G01 X63.4580 Y17.5291 
G01 X62.8568 Y17.5291 
G01 X62.8144 Y17.5324 
G01 X62.7720 Y17.5291 
G01 X62.7295 Y17.5291 
G01 X62.6875 Y17.5224 
G01 X62.6451 Y17.5191 
G01 X62.6037 Y17.5092 
G01 X62.5617 Y17.5025 
G01 X62.5213 Y17.4894 
G01 X62.4799 Y17.4795 
G01 X62.4406 Y17.4632 
G01 X62.4002 Y17.4500 
G01 X62.3623 Y17.4307 
G01 X62.0247 Y17.2909 
G01 X54.8168 Y17.2909 
G01 X54.7855 Y17.3068 
G01 X54.7451 Y17.3200 
G01 X54.7058 Y17.3363 
G01 X54.6644 Y17.3462 
G01 X54.6240 Y17.3593 
G01 X54.5820 Y17.3660 
G01 X54.5406 Y17.3759 
G01 X54.4982 Y17.3792 
G01 X54.4562 Y17.3859 
G01 X54.4137 Y17.3859 
G01 X54.3713 Y17.3892 
G01 X54.3289 Y17.3859 
G01 X51.5883 Y17.3859 
G01 X51.4205 Y17.3593 
G01 X51.2590 Y17.3068 
G01 X51.1077 Y17.2297 
G01 X50.9703 Y17.1299 
G01 X50.8502 Y17.0098 
G01 X48.2079 Y14.3676 
G01 X47.8297 Y14.2109 
G01 X36.9833 Y14.2109 
G01 X36.8156 Y14.1843 
G01 X36.6540 Y14.1318 
G01 X36.5027 Y14.0547 
G01 X36.3653 Y13.9549 
G01 X30.1711 Y7.7607 
G01 X30.1387 Y7.7331 
G01 X30.1111 Y7.7007 
G01 X30.0811 Y7.6707 
G01 X30.0561 Y7.6363 
G01 X30.0284 Y7.6039 
G01 X30.0062 Y7.5676 
G01 X29.9812 Y7.5333 
G01 X29.9619 Y7.4954 
G01 X29.9397 Y7.4591 
G01 X29.9234 Y7.4198 
G01 X29.9041 Y7.3819 
G01 X29.8910 Y7.3415 
G01 X29.8747 Y7.3022 
G01 X29.8647 Y7.2608 
G01 X29.8516 Y7.2204 
G01 X29.8450 Y7.1784 
G01 X29.8350 Y7.1370 
G01 X29.8317 Y7.0946 
G01 X29.8250 Y7.0526 
G01 X29.8250 Y7.0101 
G01 X29.8217 Y6.9677 
G01 X29.8250 Y6.9253 
G01 X29.8250 Y6.8828 
G01 X29.8317 Y6.8408 
G01 X29.8350 Y6.7983 
G01 X29.8450 Y6.7570 
G01 X29.8516 Y6.7150 
G01 X29.8648 Y6.6746 
G01 X29.8747 Y6.6332 
G01 X29.8910 Y6.5939 
G01 X29.9041 Y6.5535 
G01 X29.9234 Y6.5156 
G01 X29.9397 Y6.4763 
G01 X29.9619 Y6.4400 
G01 X29.9812 Y6.4021 
G01 X30.0062 Y6.3677 
G01 X30.0284 Y6.3314 
G01 X30.0561 Y6.2991 
G01 X30.0811 Y6.2647 
G01 X30.1111 Y6.2346 
G01 X30.1388 Y6.2023 
G01 X30.1711 Y6.1747 
G01 X30.2012 Y6.1446 
G01 X30.2356 Y6.1196 
G01 X30.2679 Y6.0920 
G01 X30.3042 Y6.0697 
G01 X30.3386 Y6.0448 
G01 X30.3717 Y6.0279 
G01 X30.4120 Y5.9876 
G01 X30.5494 Y5.8878 
G01 X30.7007 Y5.8106 
G01 X30.8623 Y5.7582 
G01 X30.9219 Y5.7487 
G01 X31.0301 Y5.7316 
G01 X31.1999 Y5.7316 
G01 X31.3309 Y5.7523 
G01 X31.3677 Y5.7581 
G01 X31.4424 Y5.7824 
G01 X31.5292 Y5.8106 
G01 X31.5318 Y5.8119 
G01 X31.6806 Y5.8877 
G01 X31.8180 Y5.9876 
G01 X31.8452 Y6.0148 
G01 X32.1955 Y6.1599 
G01 X32.5745 Y6.1599 
G01 X32.9248 Y6.0148 
G01 X32.9520 Y5.9876 
G01 X33.0894 Y5.8878 
G01 X33.2407 Y5.8106 
G01 X33.4023 Y5.7582 
G01 X33.4619 Y5.7487 
G01 X33.5701 Y5.7316 
G01 X33.7399 Y5.7316 
G01 X33.8709 Y5.7523 
G01 X33.9077 Y5.7581 
G01 X33.9824 Y5.7824 
G01 X34.0692 Y5.8106 
G01 X34.0718 Y5.8119 
G01 X34.2206 Y5.8877 
G01 X34.3580 Y5.9876 
G01 X34.3852 Y6.0148 
G01 X34.7355 Y6.1599 
G01 X35.1145 Y6.1599 
G01 X35.4648 Y6.0148 
G01 X35.4920 Y5.9876 
G01 X35.6294 Y5.8878 
G01 X35.7807 Y5.8106 
G01 X35.9423 Y5.7582 
G01 X36.0019 Y5.7487 
G01 X36.1101 Y5.7316 
G01 X36.2799 Y5.7316 
G01 X36.4109 Y5.7523 
G01 X36.4477 Y5.7581 
G01 X36.5224 Y5.7824 
G01 X36.6092 Y5.8106 
G01 X36.6118 Y5.8119 
G01 X36.7606 Y5.8877 
G01 X36.8980 Y5.9876 
G01 X36.9252 Y6.0148 
G01 X37.2755 Y6.1599 
G01 X37.6545 Y6.1599 
G01 X38.0048 Y6.0148 
G01 X38.0320 Y5.9876 
G01 X38.1694 Y5.8878 
G01 X38.3207 Y5.8106 
G01 X38.4823 Y5.7582 
G01 X38.5419 Y5.7487 
G01 X38.6501 Y5.7316 
G01 X38.8199 Y5.7316 
G01 X38.9509 Y5.7523 
G01 X38.9877 Y5.7581 
G01 X39.0624 Y5.7824 
G01 X39.1492 Y5.8106 
G01 X39.1518 Y5.8119 
G01 X39.3006 Y5.8877 
G01 X39.4380 Y5.9876 
G01 X39.4652 Y6.0148 
G01 X39.8155 Y6.1599 
G01 X40.1945 Y6.1599 
G01 X40.5448 Y6.0148 
G01 X40.5720 Y5.9876 
G01 X40.7094 Y5.8878 
G01 X40.8608 Y5.8106 
G01 X41.0223 Y5.7582 
G01 X41.0819 Y5.7487 
G01 X41.1901 Y5.7316 
G01 X41.3599 Y5.7316 
G01 X41.4909 Y5.7523 
G01 X41.5277 Y5.7581 
G01 X41.6024 Y5.7824 
G01 X41.6892 Y5.8106 
G01 X41.6918 Y5.8119 
G01 X41.8406 Y5.8877 
G01 X41.9780 Y5.9876 
G01 X42.0052 Y6.0148 
G01 X42.3555 Y6.1599 
G01 X42.7345 Y6.1599 
G01 X43.0826 Y6.0157 
G01 X43.1078 Y5.9918 
G01 X43.1578 Y5.9418 
G01 X43.1693 Y5.9335 
G01 X43.1796 Y5.9237 
G01 X43.2380 Y5.8835 
G01 X43.2952 Y5.8420 
G01 X43.3079 Y5.8355 
G01 X43.3196 Y5.8275 
G01 X43.3835 Y5.7970 
G01 X43.4466 Y5.7648 
G01 X43.4601 Y5.7605 
G01 X43.4729 Y5.7543 
G01 X43.5408 Y5.7342 
G01 X43.6081 Y5.7124 
G01 X43.6221 Y5.7101 
G01 X43.6358 Y5.7061 
G01 X43.7060 Y5.6969 
G01 X43.7759 Y5.6858 
G01 X43.7901 Y5.6858 
G01 X43.8042 Y5.6839 
G01 X43.8749 Y5.6858 
G01 X43.9457 Y5.6858 
G01 X43.9597 Y5.6880 
G01 X43.9740 Y5.6884 
G01 X44.0059 Y5.6943 
G01 X44.0059 Y4.3601 
G01 X44.0325 Y4.1923 
G01 X44.0849 Y4.0308 
G01 X44.1621 Y3.8795 
G01 X44.2091 Y3.8147 
G01 X44.2091 Y3.5967 
G01 X44.2428 Y3.4275 
G01 X44.3088 Y3.2681 
G00 Z2.0000  F3000
G00 X46.8488 Y3.2681  F3000
G01 Z-0.2000 F200.00 
G01 X46.9446 Y3.1246 F500.00 
G01 X47.0666 Y3.0026 
G01 X47.2101 Y2.9068 
G01 X47.3695 Y2.8408 
G01 X47.5387 Y2.8071 
G01 X47.7113 Y2.8071 
G01 X47.8805 Y2.8408 
G01 X48.0399 Y2.9068 
G01 X48.1834 Y3.0026 
G01 X48.3054 Y3.1246 
G01 X48.4012 Y3.2681 
G01 X48.4672 Y3.4275 
G01 X48.5009 Y3.5967 
G01 X48.5009 Y5.2933 
G01 X48.4672 Y5.4625 
G01 X48.4012 Y5.6219 
G01 X48.3054 Y5.7654 
G01 X48.1834 Y5.8874 
G01 X48.0399 Y5.9832 
G01 X47.8805 Y6.0492 
G01 X47.7113 Y6.0829 
G01 X47.5387 Y6.0829 
G01 X47.3695 Y6.0492 
G01 X47.2101 Y5.9832 
G01 X47.0666 Y5.8874 
G01 X46.9446 Y5.7654 
G01 X46.8488 Y5.6219 
G01 X46.7828 Y5.4625 
G01 X46.7491 Y5.2933 
G01 X46.7491 Y3.5967 
G01 X46.7828 Y3.4275 
G01 X46.8488 Y3.2681 
G00 Z2.0000  F3000
G00 X36.0861 Y31.0011  F3000
G01 Z-0.2000 F200.00 
G01 X63.6089 Y31.0011 F500.00 
G01 X63.8241 Y31.0352 
G01 X64.0312 Y31.1025 
G01 X64.2253 Y31.2014 
G01 X64.4015 Y31.3294 
G01 X69.0006 Y35.9284 
G01 X69.1286 Y36.1047 
G01 X69.2275 Y36.2988 
G01 X69.2948 Y36.5059 
G01 X69.3289 Y36.7211 
G01 X69.3289 Y36.9389 
G01 X69.2948 Y37.1541 
G01 X69.2275 Y37.3612 
G01 X69.1286 Y37.5553 
G01 X69.0006 Y37.7315 
G01 X68.8598 Y37.8723 
G01 X68.9625 Y37.8928 
G01 X69.1219 Y37.9588 
G01 X69.2654 Y38.0546 
G01 X69.3874 Y38.1766 
G01 X69.4832 Y38.3201 
G01 X69.5492 Y38.4795 
G01 X69.5829 Y38.6487 
G01 X69.5829 Y38.8213 
G01 X69.5492 Y38.9905 
G01 X69.4832 Y39.1499 
G01 X69.3874 Y39.2934 
G01 X69.2654 Y39.4154 
G01 X69.1219 Y39.5112 
G01 X68.9625 Y39.5772 
G01 X68.7933 Y39.6109 
G01 X67.0967 Y39.6109 
G01 X66.9275 Y39.5772 
G01 X66.7681 Y39.5112 
G01 X66.6246 Y39.4154 
G01 X66.5026 Y39.2934 
G01 X66.4068 Y39.1499 
G01 X66.3408 Y38.9905 
G01 X66.3071 Y38.8213 
G01 X66.3071 Y38.6487 
G01 X66.3408 Y38.4795 
G01 X66.4068 Y38.3201 
G01 X66.5026 Y38.1766 
G01 X66.6246 Y38.0546 
G01 X66.7681 Y37.9588 
G01 X66.9275 Y37.8928 
G01 X67.0302 Y37.8723 
G01 X62.9268 Y33.7689 
G01 X36.0861 Y33.7689 
G01 X35.8709 Y33.7348 
G01 X35.6638 Y33.6675 
G01 X35.4697 Y33.5686 
G01 X35.2934 Y33.4406 
G01 X35.1394 Y33.2865 
G01 X35.0114 Y33.1103 
G01 X34.9125 Y32.9162 
G01 X34.8452 Y32.7091 
G01 X34.8111 Y32.4939 
G01 X34.8111 Y32.2761 
G01 X34.8452 Y32.0609 
G01 X34.9125 Y31.8538 
G01 X35.0114 Y31.6597 
G01 X35.1394 Y31.4835 
G01 X35.2934 Y31.3294 
G01 X35.4697 Y31.2014 
G01 X35.6638 Y31.1025 
G01 X35.8709 Y31.0352 
G01 X36.0861 Y31.0011 
G00 Z2.0000  F3000
G00 X29.4765 Y31.3294  F3000
G01 Z-0.2000 F200.00 
G01 X29.6306 Y31.4835 F500.00 
G01 X29.7586 Y31.6597 
G01 X29.8575 Y31.8538 
G01 X29.9248 Y32.0609 
G01 X29.9589 Y32.2761 
G01 X29.9589 Y32.4939 
G01 X29.9248 Y32.7091 
G01 X29.8575 Y32.9162 
G01 X29.7586 Y33.1103 
G01 X29.6306 Y33.2865 
G01 X29.4765 Y33.4406 
G01 X29.3003 Y33.5686 
G01 X29.1062 Y33.6675 
G01 X28.8991 Y33.7348 
G01 X28.6839 Y33.7689 
G01 X9.4161 Y33.7689 
G01 X9.2009 Y33.7348 
G01 X8.9938 Y33.6675 
G01 X8.8438 Y33.5911 
G01 X8.7951 Y33.5911 
G01 X8.6076 Y33.5614 
G01 X8.4270 Y33.5027 
G01 X8.2579 Y33.4165 
G01 X8.1043 Y33.3050 
G01 X8.0602 Y33.2609 
G01 X6.7717 Y33.2609 
G01 X6.6025 Y33.2272 
G01 X6.4431 Y33.1612 
G01 X6.2996 Y33.0654 
G01 X6.1776 Y32.9434 
G01 X6.0818 Y32.7999 
G01 X6.0158 Y32.6405 
G01 X5.9821 Y32.4713 
G01 X5.9821 Y32.2987 
G01 X6.0158 Y32.1295 
G01 X6.0818 Y31.9701 
G01 X6.1776 Y31.8266 
G01 X6.2996 Y31.7046 
G01 X6.4431 Y31.6088 
G01 X6.6025 Y31.5428 
G01 X6.7717 Y31.5091 
G01 X8.0602 Y31.5091 
G01 X8.1043 Y31.4650 
G01 X8.2579 Y31.3534 
G01 X8.4270 Y31.2673 
G01 X8.6076 Y31.2086 
G01 X8.7951 Y31.1789 
G01 X8.8438 Y31.1789 
G01 X8.9938 Y31.1025 
G01 X9.2009 Y31.0352 
G01 X9.4161 Y31.0011 
G01 X19.9521 Y31.0011 
G01 X19.9521 Y28.4762 
G01 X19.9906 Y28.2825 
G01 X20.0662 Y28.0999 
G01 X20.1760 Y27.9357 
G01 X20.3157 Y27.7960 
G01 X20.4347 Y27.7165 
G01 X20.4347 Y24.3455 
G01 X19.2687 Y23.1795 
G01 X19.2002 Y23.0608 
G01 X19.1647 Y22.9285 
G01 X19.1647 Y21.4615 
G01 X19.2002 Y21.3292 
G01 X19.2687 Y21.2105 
G01 X19.2711 Y21.2081 
G01 X19.2711 Y20.7073 
G01 X19.2884 Y20.6655 
G01 X19.3205 Y20.6334 
G01 X19.3623 Y20.6161 
G01 X20.0077 Y20.6161 
G01 X20.0495 Y20.6334 
G01 X20.0816 Y20.6655 
G01 X20.0989 Y20.7073 
G01 X20.0989 Y21.2081 
G01 X20.1013 Y21.2105 
G01 X20.1698 Y21.3292 
G01 X20.2053 Y21.4615 
G01 X20.2053 Y22.6445 
G01 X20.4347 Y22.8739 
G01 X20.4347 Y21.4615 
G01 X20.4702 Y21.3292 
G01 X20.5387 Y21.2105 
G01 X20.5411 Y21.2081 
G01 X20.5411 Y20.7073 
G01 X20.5584 Y20.6655 
G01 X20.5905 Y20.6334 
G01 X20.6323 Y20.6161 
G01 X21.2777 Y20.6161 
G01 X21.3195 Y20.6334 
G01 X21.3516 Y20.6655 
G01 X21.3689 Y20.7073 
G01 X21.3689 Y21.2081 
G01 X21.3713 Y21.2105 
G01 X21.4398 Y21.3292 
G01 X21.4753 Y21.4615 
G01 X21.4753 Y27.7165 
G01 X21.5943 Y27.7960 
G01 X21.7340 Y27.9357 
G01 X21.8438 Y28.0999 
G01 X21.9194 Y28.2825 
G01 X21.9579 Y28.4762 
G01 X21.9579 Y31.0011 
G01 X28.6839 Y31.0011 
G01 X28.8991 Y31.0352 
G01 X29.1062 Y31.1025 
G01 X29.3003 Y31.2014 
G01 X29.4765 Y31.3294 
G00 Z2.0000  F3000
G00 X20.0816 Y27.5945  F3000
G01 Z-0.2000 F200.00 
G01 X20.0495 Y27.6266 F500.00 
G01 X20.0077 Y27.6439 
G01 X19.3623 Y27.6439 
G01 X19.3205 Y27.6266 
G01 X19.2884 Y27.5945 
G01 X19.2711 Y27.5527 
G01 X19.2711 Y26.8030 
G01 X19.2663 Y26.7851 
G01 X19.2663 Y25.5734 
G01 X18.8766 Y25.1837 
G01 X18.7304 Y25.1837 
G01 X18.6158 Y25.2498 
G01 X18.4835 Y25.2853 
G01 X16.8210 Y25.2853 
G01 X16.7979 Y25.3306 
G01 X16.6981 Y25.4680 
G01 X14.0380 Y28.1281 
G01 X13.9006 Y28.2279 
G01 X13.7492 Y28.3050 
G01 X13.5877 Y28.3575 
G01 X13.4199 Y28.3841 
G01 X8.8051 Y28.3841 
G01 X8.6373 Y28.3575 
G01 X8.4758 Y28.3050 
G01 X8.3244 Y28.2279 
G01 X8.1870 Y28.1281 
G01 X7.4319 Y27.3730 
G01 X7.3321 Y27.2356 
G01 X7.2550 Y27.0842 
G01 X7.2025 Y26.9227 
G01 X7.2006 Y26.9109 
G01 X6.7717 Y26.9109 
G01 X6.6025 Y26.8772 
G01 X6.4431 Y26.8112 
G01 X6.2996 Y26.7154 
G01 X6.1776 Y26.5934 
G01 X6.0818 Y26.4499 
G01 X6.0158 Y26.2905 
G01 X5.9821 Y26.1213 
G01 X5.9821 Y25.9487 
G01 X6.0158 Y25.7795 
G01 X6.0818 Y25.6201 
G01 X6.1776 Y25.4766 
G01 X6.2996 Y25.3546 
G01 X6.4431 Y25.2588 
G01 X6.6025 Y25.1928 
G01 X6.7717 Y25.1591 
G01 X8.4683 Y25.1591 
G01 X8.6375 Y25.1928 
G01 X8.7969 Y25.2588 
G01 X8.9404 Y25.3546 
G01 X9.0624 Y25.4766 
G01 X9.1582 Y25.6201 
G01 X9.2242 Y25.7795 
G01 X9.2579 Y25.9487 
G01 X9.2579 Y26.1213 
G01 X9.2537 Y26.1426 
G01 X9.3370 Y26.2259 
G01 X12.8880 Y26.2259 
G01 X15.1720 Y23.9419 
G01 X15.3094 Y23.8421 
G01 X15.4608 Y23.7650 
G01 X15.6223 Y23.7125 
G01 X15.7901 Y23.6859 
G01 X15.9599 Y23.6859 
G01 X16.1277 Y23.7125 
G01 X16.2892 Y23.7650 
G01 X16.4406 Y23.8421 
G01 X16.5780 Y23.9419 
G01 X16.6981 Y24.0620 
G01 X16.7979 Y24.1994 
G01 X16.8210 Y24.2447 
G01 X18.4835 Y24.2447 
G01 X18.6158 Y24.2802 
G01 X18.7304 Y24.3463 
G01 X19.1051 Y24.3463 
G01 X19.2116 Y24.3748 
G01 X19.3071 Y24.4300 
G01 X19.9421 Y25.0650 
G01 X20.0200 Y25.1429 
G01 X20.0752 Y25.2384 
G01 X20.1037 Y25.3449 
G01 X20.1037 Y26.7851 
G01 X20.0989 Y26.8030 
G01 X20.0989 Y27.5527 
G01 X20.0816 Y27.5945 
G00 Z2.0000  F3000
G00 X18.8116 Y22.3945  F3000
G01 Z-0.2000 F200.00 
G01 X18.7795 Y22.4266 F500.00 
G01 X18.7377 Y22.4439 
G01 X18.0923 Y22.4439 
G01 X18.0505 Y22.4266 
G01 X18.0184 Y22.3945 
G01 X18.0011 Y22.3527 
G01 X18.0011 Y21.8519 
G01 X17.9987 Y21.8495 
G01 X17.9302 Y21.7308 
G01 X17.8947 Y21.5985 
G01 X17.8947 Y20.7594 
G01 X17.8649 Y20.7641 
G01 X10.6070 Y20.7641 
G01 X8.6946 Y22.6764 
G01 X8.7969 Y22.7188 
G01 X8.9404 Y22.8146 
G01 X9.0624 Y22.9366 
G01 X9.1582 Y23.0801 
G01 X9.2242 Y23.2395 
G01 X9.2579 Y23.4087 
G01 X9.2579 Y23.5813 
G01 X9.2242 Y23.7505 
G01 X9.1582 Y23.9099 
G01 X9.0624 Y24.0534 
G01 X8.9404 Y24.1754 
G01 X8.7969 Y24.2712 
G01 X8.6375 Y24.3372 
G01 X8.4683 Y24.3709 
G01 X6.7717 Y24.3709 
G01 X6.6025 Y24.3372 
G01 X6.4431 Y24.2712 
G01 X6.2996 Y24.1754 
G01 X6.1776 Y24.0534 
G01 X6.0818 Y23.9099 
G01 X6.0158 Y23.7505 
G01 X5.9821 Y23.5813 
G01 X5.9821 Y23.4087 
G01 X6.0158 Y23.2395 
G01 X6.0818 Y23.0801 
G01 X6.1776 Y22.9366 
G01 X6.2996 Y22.8146 
G01 X6.4431 Y22.7188 
G01 X6.6025 Y22.6528 
G01 X6.6246 Y22.6484 
G01 X6.6200 Y22.6392 
G01 X6.5675 Y22.4777 
G01 X6.5409 Y22.3099 
G01 X6.5409 Y22.1401 
G01 X6.5675 Y21.9723 
G01 X6.6200 Y21.8108 
G01 X6.6971 Y21.6594 
G01 X6.7969 Y21.5220 
G01 X9.4570 Y18.8619 
G01 X9.5944 Y18.7621 
G01 X9.7458 Y18.6850 
G01 X9.9073 Y18.6325 
G01 X10.0751 Y18.6059 
G01 X17.8649 Y18.6059 
G01 X18.0327 Y18.6325 
G01 X18.1942 Y18.6850 
G01 X18.3456 Y18.7621 
G01 X18.4830 Y18.8619 
G01 X18.6031 Y18.9820 
G01 X18.7029 Y19.1194 
G01 X18.7800 Y19.2708 
G01 X18.8325 Y19.4323 
G01 X18.8591 Y19.6001 
G01 X18.8591 Y19.7699 
G01 X18.8325 Y19.9377 
G01 X18.8168 Y19.9860 
G01 X18.8313 Y20.0005 
G01 X18.8998 Y20.1192 
G01 X18.9353 Y20.2515 
G01 X18.9353 Y21.5985 
G01 X18.8998 Y21.7308 
G01 X18.8313 Y21.8495 
G01 X18.8289 Y21.8519 
G01 X18.8289 Y22.3527 
G01 X18.8116 Y22.3945 
G00 Z2.0000  F3000
G00 X17.1068 Y41.5519  F3000
G01 Z-0.2000 F200.00 
G01 X17.0531 Y41.4982 F500.00 
G01 X16.9830 Y41.4691 
G01 X16.6165 Y41.4691 
G01 X16.4487 Y41.4425 
G01 X16.3738 Y41.4182 
G01 X16.2872 Y41.3900 
G01 X16.1359 Y41.3129 
G01 X15.9984 Y41.2131 
G01 X15.8229 Y41.0376 
G01 X15.4447 Y40.8809 
G01 X8.6921 Y40.8809 
G01 X8.6605 Y40.8912 
G01 X8.6212 Y40.9075 
G01 X8.5798 Y40.9174 
G01 X8.5394 Y40.9305 
G01 X8.4974 Y40.9372 
G01 X8.4560 Y40.9471 
G01 X8.4136 Y40.9504 
G01 X8.3716 Y40.9571 
G01 X8.3291 Y40.9571 
G01 X8.2867 Y40.9604 
G01 X8.2443 Y40.9571 
G01 X6.6685 Y40.9571 
G01 X6.3182 Y41.1022 
G01 X6.0502 Y41.3702 
G01 X5.9051 Y41.7205 
G01 X5.9051 Y42.0995 
G01 X6.0502 Y42.4498 
G01 X6.0774 Y42.4770 
G01 X6.1772 Y42.6144 
G01 X6.2544 Y42.7657 
G01 X6.3068 Y42.9273 
G01 X6.3163 Y42.9869 
G01 X6.3334 Y43.0951 
G01 X6.3334 Y43.2649 
G01 X6.3127 Y43.3959 
G01 X6.3068 Y43.4327 
G01 X6.2826 Y43.5074 
G01 X6.2544 Y43.5942 
G01 X6.2530 Y43.5968 
G01 X6.1773 Y43.7456 
G01 X6.0774 Y43.8830 
G01 X6.0502 Y43.9102 
G01 X5.9051 Y44.2605 
G01 X5.9051 Y44.6395 
G01 X6.0502 Y44.9898 
G01 X6.3182 Y45.2578 
G01 X6.6685 Y45.4029 
G01 X7.3905 Y45.4029 
G01 X7.5582 Y45.4295 
G01 X7.7198 Y45.4820 
G01 X7.8711 Y45.5591 
G01 X8.0085 Y45.6589 
G01 X8.1286 Y45.7790 
G01 X8.5608 Y46.2112 
G01 X8.9421 Y46.5924 
G01 X9.3203 Y46.7491 
G01 X11.0181 Y46.7491 
G01 X11.0539 Y46.7375 
G01 X11.0959 Y46.7308 
G01 X11.1372 Y46.7209 
G01 X11.1796 Y46.7176 
G01 X11.2216 Y46.7109 
G01 X11.2642 Y46.7109 
G01 X11.3066 Y46.7076 
G01 X11.3490 Y46.7109 
G01 X12.4905 Y46.7109 
G01 X12.5306 Y46.7013 
G01 X12.6051 Y46.6954 
G01 X12.6999 Y46.6879 
G01 X12.7786 Y46.6941 
G01 X12.8693 Y46.7012 
G01 X12.9095 Y46.7109 
G01 X13.4160 Y46.7109 
G01 X13.4584 Y46.7076 
G01 X13.5008 Y46.7109 
G01 X13.5434 Y46.7109 
G01 X13.5854 Y46.7176 
G01 X13.6278 Y46.7209 
G01 X13.6691 Y46.7308 
G01 X13.7111 Y46.7375 
G01 X13.7469 Y46.7491 
G01 X14.1931 Y46.7491 
G01 X14.2289 Y46.7375 
G01 X14.2709 Y46.7308 
G01 X14.3122 Y46.7209 
G01 X14.3142 Y46.7207 
G01 X14.4319 Y46.6720 
G01 X14.4697 Y46.6485 
G01 X14.5041 Y46.6235 
G01 X14.5404 Y46.6050 
G01 X15.9985 Y45.1469 
G01 X16.1359 Y45.0471 
G01 X16.2872 Y44.9700 
G01 X16.4488 Y44.9175 
G01 X16.6165 Y44.8909 
G01 X16.9830 Y44.8909 
G01 X17.0531 Y44.8618 
G01 X17.1068 Y44.8081 
G01 X17.1359 Y44.7380 
G01 X17.1359 Y44.1620 
G01 X17.1068 Y44.0919 
G01 X16.8980 Y43.8830 
G01 X16.8829 Y43.8623 
G01 X16.7981 Y43.7456 
G01 X16.7210 Y43.5942 
G01 X16.6685 Y43.4327 
G01 X16.6419 Y43.2649 
G01 X16.6419 Y43.0951 
G01 X16.6501 Y43.0438 
G01 X16.6685 Y42.9273 
G01 X16.7210 Y42.7658 
G01 X16.7981 Y42.6144 
G01 X16.8980 Y42.4770 
G01 X17.0181 Y42.3569 
G01 X17.1068 Y42.2681 
G01 X17.1359 Y42.1980 
G01 X17.1359 Y41.6220 
G01 X17.1068 Y41.5519 
G00 Z2.0000  F3000
G00 X17.0095 Y41.5634  F3000
G01 Z-0.2000 F200.00 
G01 X17.0416 Y41.5955 F500.00 
G01 X17.0589 Y41.6373 
G01 X17.0589 Y42.1827 
G01 X17.0416 Y42.2245 
G01 X17.0095 Y42.2566 
G01 X16.9677 Y42.2739 
G01 X16.1198 Y42.2739 
G01 X16.0837 Y42.3610 
G01 X15.9795 Y42.5169 
G01 X15.8469 Y42.6495 
G01 X15.6910 Y42.7537 
G01 X15.5177 Y42.8255 
G01 X15.3338 Y42.8621 
G01 X8.7962 Y42.8621 
G01 X8.6123 Y42.8255 
G01 X8.5010 Y42.7794 
G01 X8.4683 Y42.7859 
G01 X6.7717 Y42.7859 
G01 X6.6025 Y42.7522 
G01 X6.4431 Y42.6862 
G01 X6.2996 Y42.5904 
G01 X6.1776 Y42.4684 
G01 X6.0818 Y42.3249 
G01 X6.0158 Y42.1655 
G01 X5.9821 Y41.9963 
G01 X5.9821 Y41.8237 
G01 X6.0158 Y41.6545 
G01 X6.0818 Y41.4951 
G01 X6.1776 Y41.3516 
G01 X6.2996 Y41.2296 
G01 X6.4431 Y41.1338 
G01 X6.6025 Y41.0678 
G01 X6.7717 Y41.0341 
G01 X8.4683 Y41.0341 
G01 X8.5010 Y41.0406 
G01 X8.6123 Y40.9945 
G01 X8.7962 Y40.9579 
G01 X15.3338 Y40.9579 
G01 X15.5177 Y40.9945 
G01 X15.6910 Y41.0663 
G01 X15.8469 Y41.1705 
G01 X15.9795 Y41.3031 
G01 X16.0837 Y41.4590 
G01 X16.1198 Y41.5461 
G01 X16.9677 Y41.5461 
G01 X17.0095 Y41.5634 
G00 Z2.0000  F3000
G00 X17.0095 Y44.1034  F3000
G01 Z-0.2000 F200.00 
G01 X17.0416 Y44.1355 F500.00 
G01 X17.0589 Y44.1773 
G01 X17.0589 Y44.7227 
G01 X17.0416 Y44.7645 
G01 X17.0095 Y44.7966 
G01 X16.9677 Y44.8139 
G01 X16.1198 Y44.8139 
G01 X16.0837 Y44.9010 
G01 X15.9795 Y45.0569 
G01 X14.5769 Y46.4595 
G01 X14.4210 Y46.5637 
G01 X14.4019 Y46.5716 
G01 X14.3966 Y46.5845 
G01 X14.3645 Y46.6166 
G01 X14.3227 Y46.6339 
G01 X14.2516 Y46.6339 
G01 X14.2477 Y46.6355 
G01 X14.0638 Y46.6721 
G01 X13.8762 Y46.6721 
G01 X13.6923 Y46.6355 
G01 X13.6884 Y46.6339 
G01 X12.9773 Y46.6339 
G01 X12.9355 Y46.6166 
G01 X12.9034 Y46.5845 
G01 X12.8861 Y46.5427 
G01 X12.8861 Y44.8973 
G01 X12.9034 Y44.8555 
G01 X12.9355 Y44.8234 
G01 X12.9773 Y44.8061 
G01 X13.5374 Y44.8061 
G01 X14.6331 Y43.7105 
G01 X14.7890 Y43.6063 
G01 X14.9623 Y43.5345 
G01 X15.1462 Y43.4979 
G01 X15.3338 Y43.4979 
G01 X15.5177 Y43.5345 
G01 X15.6910 Y43.6063 
G01 X15.8469 Y43.7105 
G01 X15.9795 Y43.8431 
G01 X16.0837 Y43.9990 
G01 X16.1198 Y44.0861 
G01 X16.9677 Y44.0861 
G01 X17.0095 Y44.1034 
G00 Z2.0000  F3000
G00 X12.4645 Y44.8234  F3000
G01 Z-0.2000 F200.00 
G01 X12.4966 Y44.8555 F500.00 
G01 X12.5139 Y44.8973 
G01 X12.5139 Y46.5427 
G01 X12.4966 Y46.5845 
G01 X12.4645 Y46.6166 
G01 X12.4227 Y46.6339 
G01 X11.0773 Y46.6339 
G01 X11.0727 Y46.6355 
G01 X10.8888 Y46.6721 
G01 X9.4312 Y46.6721 
G01 X9.2473 Y46.6355 
G01 X9.0740 Y46.5637 
G01 X8.9181 Y46.4595 
G01 X8.7855 Y46.3269 
G01 X8.1505 Y45.6919 
G01 X8.0463 Y45.5360 
G01 X7.9745 Y45.3627 
G01 X7.9672 Y45.3259 
G01 X6.7717 Y45.3259 
G01 X6.6025 Y45.2922 
G01 X6.4431 Y45.2262 
G01 X6.2996 Y45.1304 
G01 X6.1776 Y45.0084 
G01 X6.0818 Y44.8649 
G01 X6.0158 Y44.7055 
G01 X5.9821 Y44.5363 
G01 X5.9821 Y44.3637 
G01 X6.0158 Y44.1945 
G01 X6.0818 Y44.0351 
G01 X6.1776 Y43.8916 
G01 X6.2996 Y43.7696 
G01 X6.4431 Y43.6738 
G01 X6.6025 Y43.6078 
G01 X6.7717 Y43.5741 
G01 X8.4683 Y43.5741 
G01 X8.6375 Y43.6078 
G01 X8.7969 Y43.6738 
G01 X8.9404 Y43.7696 
G01 X9.0624 Y43.8916 
G01 X9.1582 Y44.0351 
G01 X9.2234 Y44.1926 
G01 X9.3410 Y44.2413 
G01 X9.4969 Y44.3455 
G01 X9.9194 Y44.7679 
G01 X10.8888 Y44.7679 
G01 X11.0727 Y44.8045 
G01 X11.0770 Y44.8063 
G01 X12.4227 Y44.8061 
G01 X12.4645 Y44.8234 
G00 Z2.0000  F3000
G00 X12.6546 Y51.3846  F3000
G01 Z-0.2000 F200.00 
G01 X12.7766 Y51.2626 F500.00 
G01 X12.9201 Y51.1668 
G01 X13.0795 Y51.1008 
G01 X13.2487 Y51.0671 
G01 X13.4213 Y51.0671 
G01 X13.5905 Y51.1008 
G01 X13.7499 Y51.1668 
G01 X13.8934 Y51.2626 
G01 X14.0154 Y51.3846 
G01 X14.1112 Y51.5281 
G01 X14.1772 Y51.6875 
G01 X14.2109 Y51.8567 
G01 X14.2109 Y53.5533 
G01 X14.1772 Y53.7225 
G01 X14.1112 Y53.8819 
G01 X14.0154 Y54.0254 
G01 X13.8934 Y54.1474 
G01 X13.7499 Y54.2432 
G01 X13.5905 Y54.3092 
G01 X13.4213 Y54.3429 
G01 X13.2487 Y54.3429 
G01 X13.0795 Y54.3092 
G01 X12.9201 Y54.2432 
G01 X12.7766 Y54.1474 
G01 X12.6546 Y54.0254 
G01 X12.5588 Y53.8819 
G01 X12.4928 Y53.7225 
G01 X12.4591 Y53.5533 
G01 X12.4591 Y51.8567 
G01 X12.4928 Y51.6875 
G01 X12.5588 Y51.5281 
G01 X12.6546 Y51.3846 
G00 Z2.0000  F3000
G00 X11.4754 Y51.3846  F3000
G01 Z-0.2000 F200.00 
G01 X11.5712 Y51.5281 F500.00 
G01 X11.6372 Y51.6875 
G01 X11.6709 Y51.8567 
G01 X11.6709 Y53.5533 
G01 X11.6372 Y53.7225 
G01 X11.5712 Y53.8819 
G01 X11.4754 Y54.0254 
G01 X11.3534 Y54.1474 
G01 X11.2099 Y54.2432 
G01 X11.0505 Y54.3092 
G01 X10.8813 Y54.3429 
G01 X10.7087 Y54.3429 
G01 X10.5395 Y54.3092 
G01 X10.3801 Y54.2432 
G01 X10.2366 Y54.1474 
G01 X10.1146 Y54.0254 
G01 X10.0188 Y53.8819 
G01 X9.9528 Y53.7225 
G01 X9.9191 Y53.5533 
G01 X9.9191 Y51.8567 
G01 X9.9528 Y51.6875 
G01 X10.0188 Y51.5281 
G01 X10.1146 Y51.3846 
G01 X10.2366 Y51.2626 
G01 X10.3801 Y51.1668 
G01 X10.5395 Y51.1008 
G01 X10.7087 Y51.0671 
G01 X10.8813 Y51.0671 
G01 X11.0505 Y51.1008 
G01 X11.2099 Y51.1668 
G01 X11.3534 Y51.2626 
G01 X11.4754 Y51.3846 
G00 Z2.0000  F3000
G00 X8.9354 Y51.3846  F3000
G01 Z-0.2000 F200.00 
G01 X9.0312 Y51.5281 F500.00 
G01 X9.0972 Y51.6875 
G01 X9.1309 Y51.8567 
G01 X9.1309 Y53.5533 
G01 X9.0972 Y53.7225 
G01 X9.0312 Y53.8819 
G01 X8.9354 Y54.0254 
G01 X8.8134 Y54.1474 
G01 X8.6699 Y54.2432 
G01 X8.5105 Y54.3092 
G01 X8.3413 Y54.3429 
G01 X8.1687 Y54.3429 
G01 X7.9995 Y54.3092 
G01 X7.8401 Y54.2432 
G01 X7.6966 Y54.1474 
G01 X7.5746 Y54.0254 
G01 X7.4788 Y53.8819 
G01 X7.4128 Y53.7225 
G01 X7.3791 Y53.5533 
G01 X7.3791 Y51.8567 
G01 X7.4128 Y51.6875 
G01 X7.4788 Y51.5281 
G01 X7.5746 Y51.3846 
G01 X7.6966 Y51.2626 
G01 X7.8401 Y51.1668 
G01 X7.9995 Y51.1008 
G01 X8.1687 Y51.0671 
G01 X8.3413 Y51.0671 
G01 X8.5105 Y51.1008 
G01 X8.6699 Y51.1668 
G01 X8.8134 Y51.2626 
G01 X8.9354 Y51.3846 
G00 Z2.0000  F3000
G00 X15.1946 Y51.3846  F3000
G01 Z-0.2000 F200.00 
G01 X15.3166 Y51.2626 F500.00 
G01 X15.4601 Y51.1668 
G01 X15.6195 Y51.1008 
G01 X15.7887 Y51.0671 
G01 X15.9613 Y51.0671 
G01 X16.1305 Y51.1008 
G01 X16.2899 Y51.1668 
G01 X16.4334 Y51.2626 
G01 X16.5554 Y51.3846 
G01 X16.6512 Y51.5281 
G01 X16.7172 Y51.6875 
G01 X16.7509 Y51.8567 
G01 X16.7509 Y53.5533 
G01 X16.7172 Y53.7225 
G01 X16.6512 Y53.8819 
G01 X16.5554 Y54.0254 
G01 X16.4334 Y54.1474 
G01 X16.2899 Y54.2432 
G01 X16.1305 Y54.3092 
G01 X15.9613 Y54.3429 
G01 X15.7887 Y54.3429 
G01 X15.6195 Y54.3092 
G01 X15.4601 Y54.2432 
G01 X15.3166 Y54.1474 
G01 X15.1946 Y54.0254 
G01 X15.0988 Y53.8819 
G01 X15.0328 Y53.7225 
G01 X14.9991 Y53.5533 
G01 X14.9991 Y51.8567 
G01 X15.0328 Y51.6875 
G01 X15.0988 Y51.5281 
G01 X15.1946 Y51.3846 
G00 Z2.0000  F3000
G00 X17.7346 Y51.3846  F3000
G01 Z-0.2000 F200.00 
G01 X17.8566 Y51.2626 F500.00 
G01 X18.0001 Y51.1668 
G01 X18.1595 Y51.1008 
G01 X18.3287 Y51.0671 
G01 X18.5013 Y51.0671 
G01 X18.6705 Y51.1008 
G01 X18.8299 Y51.1668 
G01 X18.9734 Y51.2626 
G01 X19.0954 Y51.3846 
G01 X19.1912 Y51.5281 
G01 X19.2572 Y51.6875 
G01 X19.2909 Y51.8567 
G01 X19.2909 Y53.5533 
G01 X19.2572 Y53.7225 
G01 X19.1912 Y53.8819 
G01 X19.0954 Y54.0254 
G01 X18.9734 Y54.1474 
G01 X18.8299 Y54.2432 
G01 X18.6705 Y54.3092 
G01 X18.5013 Y54.3429 
G01 X18.3287 Y54.3429 
G01 X18.1595 Y54.3092 
G01 X18.0001 Y54.2432 
G01 X17.8566 Y54.1474 
G01 X17.7346 Y54.0254 
G01 X17.6388 Y53.8819 
G01 X17.5728 Y53.7225 
G01 X17.5391 Y53.5533 
G01 X17.5391 Y51.8567 
G01 X17.5728 Y51.6875 
G01 X17.6388 Y51.5281 
G01 X17.7346 Y51.3846 
G00 Z2.0000  F3000
G00 X20.2746 Y51.3846  F3000
G01 Z-0.2000 F200.00 
G01 X20.3966 Y51.2626 F500.00 
G01 X20.5401 Y51.1668 
G01 X20.6995 Y51.1008 
G01 X20.8687 Y51.0671 
G01 X21.0413 Y51.0671 
G01 X21.2105 Y51.1008 
G01 X21.3699 Y51.1668 
G01 X21.5134 Y51.2626 
G01 X21.6354 Y51.3846 
G01 X21.7312 Y51.5281 
G01 X21.7972 Y51.6875 
G01 X21.8309 Y51.8567 
G01 X21.8309 Y53.5533 
G01 X21.7972 Y53.7225 
G01 X21.7312 Y53.8819 
G01 X21.6354 Y54.0254 
G01 X21.5134 Y54.1474 
G01 X21.3699 Y54.2432 
G01 X21.2105 Y54.3092 
G01 X21.0413 Y54.3429 
G01 X20.8687 Y54.3429 
G01 X20.6995 Y54.3092 
G01 X20.5401 Y54.2432 
G01 X20.3966 Y54.1474 
G01 X20.2746 Y54.0254 
G01 X20.1788 Y53.8819 
G01 X20.1128 Y53.7225 
G01 X20.0791 Y53.5533 
G01 X20.0791 Y51.8567 
G01 X20.1128 Y51.6875 
G01 X20.1788 Y51.5281 
G01 X20.2746 Y51.3846 
G00 Z2.0000  F3000
G00 X25.3546 Y51.3846  F3000
G01 Z-0.2000 F200.00 
G01 X25.4766 Y51.2626 F500.00 
G01 X25.6201 Y51.1668 
G01 X25.7795 Y51.1008 
G01 X25.9487 Y51.0671 
G01 X26.1213 Y51.0671 
G01 X26.2905 Y51.1008 
G01 X26.4499 Y51.1668 
G01 X26.5934 Y51.2626 
G01 X26.7154 Y51.3846 
G01 X26.8112 Y51.5281 
G01 X26.8772 Y51.6875 
G01 X26.9109 Y51.8567 
G01 X26.9109 Y53.5533 
G01 X26.8772 Y53.7225 
G01 X26.8112 Y53.8819 
G01 X26.7154 Y54.0254 
G01 X26.5934 Y54.1474 
G01 X26.4499 Y54.2432 
G01 X26.2905 Y54.3092 
G01 X26.1213 Y54.3429 
G01 X25.9487 Y54.3429 
G01 X25.7795 Y54.3092 
G01 X25.6201 Y54.2432 
G01 X25.4766 Y54.1474 
G01 X25.3546 Y54.0254 
G01 X25.2588 Y53.8819 
G01 X25.1928 Y53.7225 
G01 X25.1591 Y53.5533 
G01 X25.1591 Y51.8567 
G01 X25.1928 Y51.6875 
G01 X25.2588 Y51.5281 
G01 X25.3546 Y51.3846 
G00 Z2.0000  F3000
G00 X29.6541 Y51.4835  F3000
G01 Z-0.2000 F200.00 
G01 X29.6541 Y51.6259 F500.00 
G01 X30.0359 Y51.6259 
G01 X30.0359 Y51.4835 
G01 X30.0139 Y51.4864 
G01 X29.9582 Y51.4968 
G01 X29.9298 Y51.4975 
G01 X29.9016 Y51.5012 
G01 X29.8450 Y51.4997 
G01 X29.7884 Y51.5012 
G01 X29.7602 Y51.4975 
G01 X29.7318 Y51.4968 
G01 X29.6761 Y51.4864 
G01 X29.6541 Y51.4835 
G00 Z2.0000  F3000
G00 X32.8788 Y51.5281  F3000
G01 Z-0.2000 F200.00 
G01 X32.9420 Y51.4335 F500.00 
G01 X32.9155 Y51.4069 
G01 X32.8113 Y51.2510 
G01 X32.7395 Y51.0777 
G01 X32.7029 Y50.8938 
G01 X32.7029 Y46.0371 
G01 X31.6562 Y46.0371 
G01 X31.4723 Y46.0005 
G01 X31.4680 Y45.9987 
G01 X30.1223 Y45.9989 
G01 X30.0805 Y45.9816 
G01 X30.0484 Y45.9495 
G01 X30.0311 Y45.9077 
G01 X30.0311 Y44.2623 
G01 X30.0484 Y44.2205 
G01 X30.0805 Y44.1884 
G01 X30.1223 Y44.1711 
G01 X31.4677 Y44.1711 
G01 X31.4723 Y44.1695 
G01 X31.6562 Y44.1329 
G01 X33.7488 Y44.1329 
G01 X33.9327 Y44.1695 
G01 X34.1060 Y44.2413 
G01 X34.2619 Y44.3455 
G01 X34.3945 Y44.4781 
G01 X34.4987 Y44.6340 
G01 X34.5705 Y44.8073 
G01 X34.6071 Y44.9912 
G01 X34.6071 Y50.8938 
G01 X34.5705 Y51.0777 
G01 X34.4987 Y51.2510 
G01 X34.3945 Y51.4069 
G01 X34.3680 Y51.4335 
G01 X34.4312 Y51.5281 
G01 X34.4972 Y51.6875 
G01 X34.5309 Y51.8567 
G01 X34.5309 Y53.5533 
G01 X34.4972 Y53.7225 
G01 X34.4312 Y53.8819 
G01 X34.3354 Y54.0254 
G01 X34.2134 Y54.1474 
G01 X34.0699 Y54.2432 
G01 X33.9105 Y54.3092 
G01 X33.7413 Y54.3429 
G01 X33.5687 Y54.3429 
G01 X33.3995 Y54.3092 
G01 X33.2401 Y54.2432 
G01 X33.0966 Y54.1474 
G01 X32.9746 Y54.0254 
G01 X32.8788 Y53.8819 
G01 X32.8128 Y53.7225 
G01 X32.7791 Y53.5533 
G01 X32.7791 Y51.8567 
G01 X32.8128 Y51.6875 
G01 X32.8788 Y51.5281 
G00 Z2.0000  F3000
G00 X35.4188 Y51.5281  F3000
G01 Z-0.2000 F200.00 
G01 X35.5146 Y51.3846 F500.00 
G01 X35.6366 Y51.2626 
G01 X35.7801 Y51.1668 
G01 X35.9395 Y51.1008 
G01 X36.1087 Y51.0671 
G01 X36.2813 Y51.0671 
G01 X36.4505 Y51.1008 
G01 X36.6099 Y51.1668 
G01 X36.7534 Y51.2626 
G01 X36.8754 Y51.3846 
G01 X36.9712 Y51.5281 
G01 X37.0372 Y51.6875 
G01 X37.0709 Y51.8567 
G01 X37.0709 Y53.5533 
G01 X37.0372 Y53.7225 
G01 X36.9712 Y53.8819 
G01 X36.8754 Y54.0254 
G01 X36.7534 Y54.1474 
G01 X36.6099 Y54.2432 
G01 X36.4505 Y54.3092 
G01 X36.2813 Y54.3429 
G01 X36.1087 Y54.3429 
G01 X35.9395 Y54.3092 
G01 X35.7801 Y54.2432 
G01 X35.6366 Y54.1474 
G01 X35.5146 Y54.0254 
G01 X35.4188 Y53.8819 
G01 X35.3528 Y53.7225 
G01 X35.3191 Y53.5533 
G01 X35.3191 Y51.8567 
G01 X35.3528 Y51.6875 
G01 X35.4188 Y51.5281 
G00 Z2.0000  F3000
G00 X37.9588 Y51.5281  F3000
G01 Z-0.2000 F200.00 
G01 X38.0546 Y51.3846 F500.00 
G01 X38.1766 Y51.2626 
G01 X38.3201 Y51.1668 
G01 X38.4795 Y51.1008 
G01 X38.6487 Y51.0671 
G01 X38.8213 Y51.0671 
G01 X38.9905 Y51.1008 
G01 X39.1499 Y51.1668 
G01 X39.2934 Y51.2626 
G01 X39.4154 Y51.3846 
G01 X39.5112 Y51.5281 
G01 X39.5772 Y51.6875 
G01 X39.6109 Y51.8567 
G01 X39.6109 Y53.5533 
G01 X39.5772 Y53.7225 
G01 X39.5112 Y53.8819 
G01 X39.4154 Y54.0254 
G01 X39.2934 Y54.1474 
G01 X39.1499 Y54.2432 
G01 X38.9905 Y54.3092 
G01 X38.8213 Y54.3429 
G01 X38.6487 Y54.3429 
G01 X38.4795 Y54.3092 
G01 X38.3201 Y54.2432 
G01 X38.1766 Y54.1474 
G01 X38.0546 Y54.0254 
G01 X37.9588 Y53.8819 
G01 X37.8928 Y53.7225 
G01 X37.8591 Y53.5533 
G01 X37.8591 Y51.8567 
G01 X37.8928 Y51.6875 
G01 X37.9588 Y51.5281 
G00 Z2.0000  F3000
G00 X40.4988 Y51.5281  F3000
G01 Z-0.2000 F200.00 
G01 X40.5946 Y51.3846 F500.00 
G01 X40.7166 Y51.2626 
G01 X40.8601 Y51.1668 
G01 X41.0195 Y51.1008 
G01 X41.1887 Y51.0671 
G01 X41.3613 Y51.0671 
G01 X41.5305 Y51.1008 
G01 X41.6899 Y51.1668 
G01 X41.8334 Y51.2626 
G01 X41.9554 Y51.3846 
G01 X42.0512 Y51.5281 
G01 X42.1172 Y51.6875 
G01 X42.1509 Y51.8567 
G01 X42.1509 Y53.5533 
G01 X42.1172 Y53.7225 
G01 X42.0512 Y53.8819 
G01 X41.9554 Y54.0254 
G01 X41.8334 Y54.1474 
G01 X41.6899 Y54.2432 
G01 X41.5305 Y54.3092 
G01 X41.3613 Y54.3429 
G01 X41.1887 Y54.3429 
G01 X41.0195 Y54.3092 
G01 X40.8601 Y54.2432 
G01 X40.7166 Y54.1474 
G01 X40.5946 Y54.0254 
G01 X40.4988 Y53.8819 
G01 X40.4328 Y53.7225 
G01 X40.3991 Y53.5533 
G01 X40.3991 Y51.8567 
G01 X40.4328 Y51.6875 
G01 X40.4988 Y51.5281 
G00 Z2.0000  F3000
G00 X1.8591 Y3.2581  F3000
G01 Z-0.2000 F200.00 
G01 X1.9881 Y3.1291 F500.00 
G01 X2.1357 Y3.0218 
G01 X2.2983 Y2.9390 
G01 X2.4718 Y2.8826 
G01 X2.6520 Y2.8541 
G01 X6.3142 Y2.8541 
G01 X6.4944 Y2.8826 
G01 X6.6679 Y2.9390 
G01 X6.8305 Y3.0218 
G01 X6.9781 Y3.1291 
G01 X7.1071 Y3.2581 
G01 X7.2143 Y3.4057 
G01 X7.2972 Y3.5683 
G01 X7.3009 Y3.5798 
G01 X7.3358 Y3.4042 
G01 X7.4079 Y3.2302 
G01 X7.5125 Y3.0736 
G01 X7.6456 Y2.9405 
G01 X7.8022 Y2.8359 
G01 X7.9762 Y2.7638 
G01 X8.1608 Y2.7271 
G01 X8.3491 Y2.7271 
G01 X8.5338 Y2.7638 
G01 X8.7078 Y2.8359 
G01 X8.8643 Y2.9405 
G01 X8.9975 Y3.0736 
G01 X9.1021 Y3.2302 
G01 X9.1742 Y3.4042 
G01 X9.2109 Y3.5888 
G01 X9.2109 Y5.3011 
G01 X9.1742 Y5.4858 
G01 X9.1021 Y5.6598 
G01 X9.0358 Y5.7591 
G01 X9.0800 Y5.7365 
G01 X9.1432 Y5.7160 
G01 X9.2536 Y5.6801 
G01 X9.2890 Y5.6745 
G01 X9.4338 Y5.6516 
G01 X9.6162 Y5.6516 
G01 X9.7569 Y5.6739 
G01 X9.7964 Y5.6801 
G01 X9.8767 Y5.7062 
G01 X9.9699 Y5.7365 
G01 X10.0142 Y5.7591 
G01 X9.9479 Y5.6598 
G01 X9.8758 Y5.4858 
G01 X9.8391 Y5.3011 
G01 X9.8391 Y3.5888 
G01 X9.8758 Y3.4042 
G01 X9.9479 Y3.2302 
G01 X10.0525 Y3.0736 
G01 X10.1856 Y2.9405 
G01 X10.3422 Y2.8359 
G01 X10.5162 Y2.7638 
G01 X10.7009 Y2.7271 
G01 X10.8891 Y2.7271 
G01 X11.0738 Y2.7638 
G01 X11.2478 Y2.8359 
G01 X11.4044 Y2.9405 
G01 X11.5375 Y3.0736 
G01 X11.6421 Y3.2302 
G01 X11.7142 Y3.4042 
G01 X11.7509 Y3.5888 
G01 X11.7509 Y5.3011 
G01 X11.7142 Y5.4858 
G01 X11.6421 Y5.6598 
G01 X11.5375 Y5.8163 
G01 X11.4044 Y5.9495 
G01 X11.2478 Y6.0541 
G01 X11.0738 Y6.1262 
G01 X10.8891 Y6.1629 
G01 X10.7931 Y6.1629 
G01 X10.8293 Y6.1892 
G01 X10.8683 Y6.2131 
G01 X10.9030 Y6.2427 
G01 X10.9400 Y6.2696 
G01 X10.9722 Y6.3019 
G01 X11.0070 Y6.3315 
G01 X11.0367 Y6.3663 
G01 X11.0690 Y6.3986 
G01 X11.0958 Y6.4356 
G01 X11.1255 Y6.4703 
G01 X11.1493 Y6.5092 
G01 X11.1762 Y6.5462 
G01 X11.1970 Y6.5869 
G01 X11.2208 Y6.6258 
G01 X11.2383 Y6.6680 
G01 X11.2590 Y6.7088 
G01 X11.2732 Y6.7522 
G01 X11.2906 Y6.7944 
G01 X11.3013 Y6.8388 
G01 X11.3154 Y6.8823 
G01 X11.3226 Y6.9274 
G01 X11.3332 Y6.9718 
G01 X11.3368 Y7.0173 
G01 X11.3440 Y7.0625 
G01 X11.3440 Y7.1081 
G01 X11.3475 Y7.1537 
G01 X11.3440 Y7.1992 
G01 X11.3440 Y7.2449 
G01 X11.3368 Y7.2900 
G01 X11.3332 Y7.3356 
G01 X11.3226 Y7.3800 
G01 X11.3154 Y7.4251 
G01 X11.3013 Y7.4685 
G01 X11.2906 Y7.5130 
G01 X11.2732 Y7.5552 
G01 X11.2590 Y7.5986 
G01 X11.2562 Y7.6042 
G01 X12.3029 Y6.5575 
G01 X12.3029 Y5.6133 
G01 X12.3426 Y5.4139 
G01 X12.3824 Y5.3178 
G01 X12.3791 Y5.3011 
G01 X12.3791 Y3.5888 
G01 X12.4158 Y3.4042 
G01 X12.4879 Y3.2302 
G01 X12.5925 Y3.0736 
G01 X12.7256 Y2.9405 
G01 X12.8822 Y2.8359 
G01 X13.0562 Y2.7638 
G01 X13.2409 Y2.7271 
G01 X13.4291 Y2.7271 
G01 X13.6138 Y2.7638 
G01 X13.7878 Y2.8359 
G01 X13.9444 Y2.9405 
G01 X14.0775 Y3.0736 
G01 X14.1821 Y3.2302 
G01 X14.2542 Y3.4042 
G01 X14.2909 Y3.5888 
G01 X14.2909 Y5.3011 
G01 X14.2876 Y5.3178 
G01 X14.3274 Y5.4139 
G01 X14.3671 Y5.6133 
G01 X14.3671 Y7.0867 
G01 X14.3274 Y7.2861 
G01 X14.2496 Y7.4739 
G01 X14.1367 Y7.6429 
G01 X13.3163 Y8.4633 
G01 X13.3219 Y8.4605 
G01 X13.4954 Y8.4041 
G01 X13.6756 Y8.3755 
G01 X13.8580 Y8.3755 
G01 X14.0382 Y8.4041 
G01 X14.2117 Y8.4605 
G01 X14.3743 Y8.5433 
G01 X14.5219 Y8.6505 
G01 X14.6509 Y8.7795 
G01 X14.7582 Y8.9271 
G01 X14.8410 Y9.0897 
G01 X14.8429 Y9.0956 
G01 X14.8429 Y6.2483 
G01 X14.8826 Y6.0489 
G01 X14.9604 Y5.8611 
G01 X15.0461 Y5.7328 
G01 X15.0461 Y5.6870 
G01 X15.0279 Y5.6598 
G01 X14.9558 Y5.4858 
G01 X14.9191 Y5.3011 
G01 X14.9191 Y3.5888 
G01 X14.9558 Y3.4042 
G01 X15.0279 Y3.2302 
G01 X15.1325 Y3.0736 
G01 X15.2656 Y2.9405 
G01 X15.4222 Y2.8359 
G01 X15.5962 Y2.7638 
G01 X15.7808 Y2.7271 
G01 X15.9691 Y2.7271 
G01 X16.1538 Y2.7638 
G01 X16.3278 Y2.8359 
G01 X16.4843 Y2.9405 
G01 X16.6175 Y3.0736 
G01 X16.7221 Y3.2302 
G01 X16.7942 Y3.4042 
G01 X16.8309 Y3.5888 
G01 X16.8309 Y5.3011 
G01 X16.7942 Y5.4858 
G01 X16.7221 Y5.6598 
G01 X16.7039 Y5.6870 
G01 X16.7039 Y5.7328 
G01 X16.7896 Y5.8611 
G01 X16.8674 Y6.0489 
G01 X16.9071 Y6.2483 
G01 X16.9071 Y10.3675 
G01 X22.8829 Y16.3433 
G01 X23.0267 Y16.4871 
G01 X23.1396 Y16.6561 
G01 X23.2174 Y16.8439 
G01 X23.2571 Y17.0433 
G01 X23.2571 Y19.1517 
G01 X23.2174 Y19.3511 
G01 X23.1396 Y19.5389 
G01 X23.0267 Y19.7079 
G01 X22.8829 Y19.8517 
G01 X22.7237 Y19.9581 
G01 X22.7237 Y21.5957 
G01 X22.7189 Y21.6136 
G01 X22.7189 Y22.3686 
G01 X22.6894 Y22.4398 
G01 X22.6348 Y22.4944 
G01 X22.5636 Y22.5239 
G01 X21.8864 Y22.5239 
G01 X21.8152 Y22.4944 
G01 X21.7606 Y22.4398 
G01 X21.7311 Y22.3686 
G01 X21.7311 Y21.6136 
G01 X21.7263 Y21.5957 
G01 X21.7263 Y19.9581 
G01 X21.5671 Y19.8517 
G01 X21.4233 Y19.7079 
G01 X21.3104 Y19.5389 
G01 X21.2759 Y19.4557 
G01 X21.2759 Y19.5512 
G01 X21.2474 Y19.7314 
G01 X21.1910 Y19.9049 
G01 X21.1081 Y20.0675 
G01 X21.0009 Y20.2151 
G01 X20.8719 Y20.3441 
G01 X20.7243 Y20.4514 
G01 X20.5617 Y20.5342 
G01 X20.3882 Y20.5906 
G01 X20.2080 Y20.6191 
G01 X20.1483 Y20.6191 
G01 X20.1789 Y20.6914 
G01 X20.1789 Y21.1887 
G01 X20.2170 Y21.2457 
G01 X20.2622 Y21.3549 
G01 X20.2853 Y21.4709 
G01 X20.2853 Y22.6113 
G01 X20.3547 Y22.6808 
G01 X20.3547 Y21.4709 
G01 X20.3778 Y21.3549 
G01 X20.4230 Y21.2457 
G01 X20.4611 Y21.1887 
G01 X20.4611 Y20.6914 
G01 X20.4906 Y20.6202 
G01 X20.5452 Y20.5656 
G01 X20.6164 Y20.5361 
G01 X21.2936 Y20.5361 
G01 X21.3648 Y20.5656 
G01 X21.4194 Y20.6202 
G01 X21.4489 Y20.6914 
G01 X21.4489 Y21.1887 
G01 X21.4870 Y21.2457 
G01 X21.5322 Y21.3549 
G01 X21.5553 Y21.4709 
G01 X21.5553 Y27.6726 
G01 X21.6605 Y27.7490 
G01 X21.7810 Y27.8695 
G01 X21.8812 Y28.0074 
G01 X21.9586 Y28.1593 
G01 X22.0112 Y28.3214 
G01 X22.0379 Y28.4898 
G01 X22.0379 Y30.9211 
G01 X28.6902 Y30.9211 
G01 X28.9178 Y30.9571 
G01 X29.1369 Y31.0283 
G01 X29.3422 Y31.1330 
G01 X29.5287 Y31.2684 
G01 X29.6916 Y31.4313 
G01 X29.8270 Y31.6177 
G01 X29.9316 Y31.8231 
G01 X30.0028 Y32.0422 
G01 X30.0389 Y32.2698 
G01 X30.0389 Y32.5002 
G01 X30.0028 Y32.7278 
G01 X29.9316 Y32.9469 
G01 X29.8270 Y33.1523 
G01 X29.7678 Y33.2337 
G01 X29.8267 Y33.2037 
G01 X29.8319 Y33.2011 
G01 X30.0054 Y33.1447 
G01 X30.1099 Y33.1282 
G01 X30.1856 Y33.1162 
G01 X30.3680 Y33.1162 
G01 X30.5482 Y33.1447 
G01 X30.6590 Y33.1807 
G01 X30.7217 Y33.2011 
G01 X30.8843 Y33.2839 
G01 X30.9219 Y33.3112 
G01 X31.0319 Y33.3912 
G01 X31.1609 Y33.5202 
G01 X31.2110 Y33.5891 
G01 X31.2681 Y33.6678 
G01 X31.3484 Y33.8252 
G01 X31.3510 Y33.8304 
G01 X31.3529 Y33.8363 
G01 X31.3529 Y29.6375 
G01 X28.4083 Y26.6929 
G01 X28.2954 Y26.5239 
G01 X28.2176 Y26.3361 
G01 X28.1779 Y26.1367 
G01 X28.1779 Y16.3025 
G01 X20.1533 Y8.2779 
G01 X20.0404 Y8.1089 
G01 X19.9626 Y7.9211 
G01 X19.9229 Y7.7217 
G01 X19.9229 Y5.6133 
G01 X19.9626 Y5.4139 
G01 X20.0024 Y5.3178 
G01 X19.9991 Y5.3011 
G01 X19.9991 Y3.5888 
G01 X20.0358 Y3.4042 
G01 X20.1079 Y3.2302 
G01 X20.2125 Y3.0736 
G01 X20.3456 Y2.9405 
G01 X20.5022 Y2.8359 
G01 X20.6762 Y2.7638 
G01 X20.8608 Y2.7271 
G01 X21.0491 Y2.7271 
G01 X21.2338 Y2.7638 
G01 X21.4078 Y2.8359 
G01 X21.5644 Y2.9405 
G01 X21.6975 Y3.0736 
G01 X21.8021 Y3.2302 
G01 X21.8742 Y3.4042 
G01 X21.9109 Y3.5888 
G01 X21.9109 Y5.3011 
G01 X21.9076 Y5.3178 
G01 X21.9474 Y5.4139 
G01 X21.9871 Y5.6133 
G01 X21.9871 Y7.1925 
G01 X29.8679 Y15.0733 
G01 X30.0117 Y15.2171 
G01 X30.1246 Y15.3861 
G01 X30.2024 Y15.5739 
G01 X30.2421 Y15.7733 
G01 X30.2421 Y19.8160 
G01 X30.2440 Y19.8101 
G01 X30.2648 Y19.7694 
G01 X30.2822 Y19.7272 
G01 X30.3061 Y19.6882 
G01 X30.3268 Y19.6475 
G01 X30.3537 Y19.6105 
G01 X30.3776 Y19.5716 
G01 X30.4072 Y19.5369 
G01 X30.4341 Y19.4999 
G01 X30.4664 Y19.4676 
G01 X30.4961 Y19.4329 
G01 X30.5308 Y19.4032 
G01 X30.5631 Y19.3709 
G01 X30.6001 Y19.3440 
G01 X30.6348 Y19.3144 
G01 X30.6737 Y19.2905 
G01 X30.7107 Y19.2637 
G01 X30.7514 Y19.2429 
G01 X30.7903 Y19.2191 
G01 X30.8325 Y19.2016 
G01 X30.8733 Y19.1808 
G01 X30.9167 Y19.1667 
G01 X30.9589 Y19.1492 
G01 X31.0033 Y19.1386 
G01 X31.0468 Y19.1245 
G01 X31.0919 Y19.1173 
G01 X31.1363 Y19.1066 
G01 X31.1818 Y19.1031 
G01 X31.2270 Y19.0959 
G01 X31.2727 Y19.0959 
G01 X31.3182 Y19.0923 
G01 X31.3637 Y19.0959 
G01 X31.4094 Y19.0959 
G01 X31.4545 Y19.1031 
G01 X31.5001 Y19.1066 
G01 X31.5445 Y19.1173 
G01 X31.5896 Y19.1245 
G01 X31.6331 Y19.1386 
G01 X31.6540 Y19.1436 
G01 X31.5833 Y19.0729 
G01 X31.4704 Y18.9039 
G01 X31.3926 Y18.7160 
G01 X31.3529 Y18.5167 
G01 X31.3529 Y15.6675 
G01 X22.6933 Y7.0079 
G01 X22.5804 Y6.8389 
G01 X22.5026 Y6.6510 
G01 X22.4629 Y6.4517 
G01 X22.4629 Y5.6133 
G01 X22.5026 Y5.4139 
G01 X22.5424 Y5.3178 
G01 X22.5391 Y5.3011 
G01 X22.5391 Y3.5888 
G01 X22.5758 Y3.4042 
G01 X22.6479 Y3.2302 
G01 X22.7525 Y3.0736 
G01 X22.8856 Y2.9405 
G01 X23.0422 Y2.8359 
G01 X23.2162 Y2.7638 
G01 X23.4008 Y2.7271 
G01 X23.5891 Y2.7271 
G01 X23.7738 Y2.7638 
G01 X23.9478 Y2.8359 
G01 X24.1044 Y2.9405 
G01 X24.2375 Y3.0736 
G01 X24.3421 Y3.2302 
G01 X24.4142 Y3.4042 
G01 X24.4509 Y3.5888 
G01 X24.4509 Y5.3011 
G01 X24.4476 Y5.3178 
G01 X24.4874 Y5.4139 
G01 X24.5271 Y5.6133 
G01 X24.5271 Y5.9225 
G01 X33.0429 Y14.4383 
G01 X33.1867 Y14.5821 
G01 X33.2996 Y14.7511 
G01 X33.3774 Y14.9389 
G01 X33.4171 Y15.1383 
G01 X33.4171 Y17.3829 
G01 X34.9004 Y17.3829 
G01 X35.0339 Y17.3276 
G01 X35.2333 Y17.2879 
G01 X42.2367 Y17.2879 
G01 X42.4361 Y17.3276 
G01 X42.6239 Y17.4054 
G01 X42.7929 Y17.5183 
G01 X42.8007 Y17.5261 
G01 X43.7736 Y17.5261 
G01 X43.8099 Y17.5412 
G01 X43.8073 Y17.5301 
G01 X43.8037 Y17.4846 
G01 X43.7965 Y17.4394 
G01 X43.7965 Y17.3937 
G01 X43.7929 Y17.3482 
G01 X43.7965 Y17.3027 
G01 X43.7965 Y17.2570 
G01 X43.8037 Y17.2119 
G01 X43.8073 Y17.1663 
G01 X43.8179 Y17.1219 
G01 X43.8251 Y17.0768 
G01 X43.8392 Y17.0333 
G01 X43.8498 Y16.9889 
G01 X43.8673 Y16.9467 
G01 X43.8814 Y16.9033 
G01 X43.9022 Y16.8626 
G01 X43.9197 Y16.8204 
G01 X43.9435 Y16.7814 
G01 X43.9643 Y16.7407 
G01 X43.9911 Y16.7037 
G01 X44.0150 Y16.6648 
G01 X44.0447 Y16.6301 
G01 X44.0715 Y16.5931 
G01 X44.1038 Y16.5608 
G01 X44.1335 Y16.5261 
G01 X44.1682 Y16.4964 
G01 X44.2005 Y16.4641 
G01 X44.2375 Y16.4372 
G01 X44.2722 Y16.4076 
G01 X44.3112 Y16.3837 
G01 X44.3481 Y16.3568 
G01 X44.3888 Y16.3361 
G01 X44.4278 Y16.3122 
G01 X44.4700 Y16.2948 
G01 X44.5107 Y16.2740 
G01 X44.5166 Y16.2721 
G01 X36.0933 Y16.2721 
G01 X35.8939 Y16.2324 
G01 X35.7061 Y16.1546 
G01 X35.5371 Y16.0417 
G01 X35.3933 Y15.8979 
G01 X25.8683 Y6.3729 
G01 X25.7554 Y6.2039 
G01 X25.7163 Y6.1097 
G01 X25.5822 Y6.0541 
G01 X25.4256 Y5.9495 
G01 X25.2925 Y5.8163 
G01 X25.1879 Y5.6598 
G01 X25.1158 Y5.4858 
G01 X25.0791 Y5.3011 
G01 X25.0791 Y3.5888 
G01 X25.1158 Y3.4042 
G01 X25.1879 Y3.2302 
G01 X25.2925 Y3.0736 
G01 X25.4256 Y2.9405 
G01 X25.5822 Y2.8359 
G01 X25.7562 Y2.7638 
G01 X25.9409 Y2.7271 
G01 X26.1291 Y2.7271 
G01 X26.3138 Y2.7638 
G01 X26.4878 Y2.8359 
G01 X26.6443 Y2.9405 
G01 X26.7775 Y3.0736 
G01 X26.8821 Y3.2302 
G01 X26.9542 Y3.4042 
G01 X26.9909 Y3.5888 
G01 X26.9909 Y4.7308 
G01 X27.1589 Y4.8004 
G01 X27.3279 Y4.9133 
G01 X29.8328 Y7.4182 
G01 X29.8300 Y7.4126 
G01 X29.8158 Y7.3692 
G01 X29.7984 Y7.3270 
G01 X29.7877 Y7.2826 
G01 X29.7736 Y7.2391 
G01 X29.7664 Y7.1940 
G01 X29.7558 Y7.1496 
G01 X29.7522 Y7.1040 
G01 X29.7450 Y7.0589 
G01 X29.7450 Y7.0132 
G01 X29.7415 Y6.9677 
G01 X29.7450 Y6.9221 
G01 X29.7450 Y6.8765 
G01 X29.7522 Y6.8314 
G01 X29.7558 Y6.7858 
G01 X29.7664 Y6.7414 
G01 X29.7736 Y6.6963 
G01 X29.7877 Y6.6528 
G01 X29.7984 Y6.6084 
G01 X29.8159 Y6.5662 
G01 X29.8300 Y6.5228 
G01 X29.8507 Y6.4820 
G01 X29.8682 Y6.4398 
G01 X29.8920 Y6.4009 
G01 X29.9128 Y6.3602 
G01 X29.9397 Y6.3232 
G01 X29.9635 Y6.2843 
G01 X29.9932 Y6.2496 
G01 X30.0200 Y6.2126 
G01 X30.0523 Y6.1803 
G01 X30.0820 Y6.1455 
G01 X30.0989 Y6.1311 
G01 X29.9391 Y6.1629 
G01 X29.7508 Y6.1629 
G01 X29.5662 Y6.1262 
G01 X29.3922 Y6.0541 
G01 X29.2356 Y5.9495 
G01 X29.1025 Y5.8163 
G01 X28.9979 Y5.6598 
G01 X28.9258 Y5.4858 
G01 X28.8891 Y5.3011 
G01 X28.8891 Y3.5888 
G01 X28.9258 Y3.4042 
G01 X28.9979 Y3.2302 
G01 X29.1025 Y3.0736 
G01 X29.2356 Y2.9405 
G01 X29.3922 Y2.8359 
G01 X29.5662 Y2.7638 
G01 X29.7508 Y2.7271 
G01 X29.9391 Y2.7271 
G01 X30.1238 Y2.7638 
G01 X30.2978 Y2.8359 
G01 X30.4544 Y2.9405 
G01 X30.5875 Y3.0736 
G01 X30.6921 Y3.2302 
G01 X30.7642 Y3.4042 
G01 X30.8009 Y3.5888 
G01 X30.8009 Y5.3011 
G01 X30.7642 Y5.4858 
G01 X30.6921 Y5.6598 
G01 X30.6258 Y5.7591 
G01 X30.6700 Y5.7365 
G01 X30.7332 Y5.7160 
G01 X30.8436 Y5.6801 
G01 X30.8790 Y5.6745 
G01 X31.0238 Y5.6516 
G01 X31.2062 Y5.6516 
G01 X31.3469 Y5.6739 
G01 X31.3864 Y5.6801 
G01 X31.4667 Y5.7062 
G01 X31.5599 Y5.7365 
G01 X31.6042 Y5.7591 
G01 X31.5379 Y5.6598 
G01 X31.4658 Y5.4858 
G01 X31.4291 Y5.3011 
G01 X31.4291 Y3.5888 
G01 X31.4658 Y3.4042 
G01 X31.5379 Y3.2302 
G01 X31.6425 Y3.0736 
G01 X31.7756 Y2.9405 
G01 X31.9322 Y2.8359 
G01 X32.1062 Y2.7638 
G01 X32.2908 Y2.7271 
G01 X32.4791 Y2.7271 
G01 X32.6638 Y2.7638 
G01 X32.8378 Y2.8359 
G01 X32.9943 Y2.9405 
G01 X33.1275 Y3.0736 
G01 X33.2321 Y3.2302 
G01 X33.3042 Y3.4042 
G01 X33.3409 Y3.5888 
G01 X33.3409 Y5.3011 
G01 X33.3042 Y5.4858 
G01 X33.2321 Y5.6598 
G01 X33.1658 Y5.7591 
G01 X33.2100 Y5.7365 
G01 X33.2732 Y5.7160 
G01 X33.3836 Y5.6801 
G01 X33.4190 Y5.6745 
G01 X33.5638 Y5.6516 
G01 X33.7462 Y5.6516 
G01 X33.8869 Y5.6739 
G01 X33.9264 Y5.6801 
G01 X34.0067 Y5.7062 
G01 X34.0999 Y5.7365 
G01 X34.1442 Y5.7591 
G01 X34.0779 Y5.6598 
G01 X34.0058 Y5.4858 
G01 X33.9691 Y5.3011 
G01 X33.9691 Y3.5888 
G01 X34.0058 Y3.4042 
G01 X34.0779 Y3.2302 
G01 X34.1825 Y3.0736 
G01 X34.3156 Y2.9405 
G01 X34.4722 Y2.8359 
G01 X34.6462 Y2.7638 
G01 X34.8308 Y2.7271 
G01 X35.0191 Y2.7271 
G01 X35.2038 Y2.7638 
G01 X35.3778 Y2.8359 
G01 X35.5344 Y2.9405 
G01 X35.6675 Y3.0736 
G01 X35.7721 Y3.2302 
G01 X35.8442 Y3.4042 
G01 X35.8809 Y3.5888 
G01 X35.8809 Y5.3011 
G01 X35.8442 Y5.4858 
G01 X35.7721 Y5.6598 
G01 X35.7058 Y5.7591 
G01 X35.7500 Y5.7365 
G01 X35.8132 Y5.7160 
G01 X35.9236 Y5.6801 
G01 X35.9590 Y5.6745 
G01 X36.1038 Y5.6516 
G01 X36.2862 Y5.6516 
G01 X36.4269 Y5.6739 
G01 X36.4664 Y5.6801 
G01 X36.5467 Y5.7062 
G01 X36.6399 Y5.7365 
G01 X36.6842 Y5.7591 
G01 X36.6179 Y5.6598 
G01 X36.5458 Y5.4858 
G01 X36.5091 Y5.3011 
G01 X36.5091 Y3.5888 
G01 X36.5458 Y3.4042 
G01 X36.6179 Y3.2302 
G01 X36.7225 Y3.0736 
G01 X36.8556 Y2.9405 
G01 X37.0122 Y2.8359 
G01 X37.1862 Y2.7638 
G01 X37.3708 Y2.7271 
G01 X37.5591 Y2.7271 
G01 X37.7438 Y2.7638 
G01 X37.9178 Y2.8359 
G01 X38.0744 Y2.9405 
G01 X38.2075 Y3.0736 
G01 X38.3121 Y3.2302 
G01 X38.3842 Y3.4042 
G01 X38.4209 Y3.5888 
G01 X38.4209 Y5.3011 
G01 X38.3842 Y5.4858 
G01 X38.3121 Y5.6598 
G01 X38.2458 Y5.7591 
G01 X38.2900 Y5.7365 
G01 X38.3532 Y5.7160 
G01 X38.4636 Y5.6801 
G01 X38.4990 Y5.6745 
G01 X38.6438 Y5.6516 
G01 X38.8262 Y5.6516 
G01 X38.9669 Y5.6739 
G01 X39.0064 Y5.6801 
G01 X39.0867 Y5.7062 
G01 X39.1799 Y5.7365 
G01 X39.2242 Y5.7591 
G01 X39.1579 Y5.6598 
G01 X39.0858 Y5.4858 
G01 X39.0491 Y5.3011 
G01 X39.0491 Y3.5888 
G01 X39.0858 Y3.4042 
G01 X39.1579 Y3.2302 
G01 X39.2625 Y3.0736 
G01 X39.3956 Y2.9405 
G01 X39.5522 Y2.8359 
G01 X39.7262 Y2.7638 
G01 X39.9109 Y2.7271 
G01 X40.0991 Y2.7271 
G01 X40.2838 Y2.7638 
G01 X40.4578 Y2.8359 
G01 X40.6144 Y2.9405 
G01 X40.7475 Y3.0736 
G01 X40.8521 Y3.2302 
G01 X40.9242 Y3.4042 
G01 X40.9609 Y3.5888 
G01 X40.9609 Y5.3011 
G01 X40.9242 Y5.4858 
G01 X40.8521 Y5.6598 
G01 X40.7858 Y5.7591 
G01 X40.8300 Y5.7365 
G01 X40.8932 Y5.7160 
G01 X41.0036 Y5.6801 
G01 X41.0390 Y5.6745 
G01 X41.1838 Y5.6516 
G01 X41.3662 Y5.6516 
G01 X41.5069 Y5.6739 
G01 X41.5464 Y5.6801 
G01 X41.6267 Y5.7062 
G01 X41.7199 Y5.7365 
G01 X41.7642 Y5.7591 
G01 X41.6979 Y5.6598 
G01 X41.6258 Y5.4858 
G01 X41.5891 Y5.3011 
G01 X41.5891 Y3.5888 
G01 X41.6258 Y3.4042 
G01 X41.6979 Y3.2302 
G01 X41.8025 Y3.0736 
G01 X41.9356 Y2.9405 
G01 X42.0922 Y2.8359 
G01 X42.2662 Y2.7638 
G01 X42.4509 Y2.7271 
G01 X42.6391 Y2.7271 
G01 X42.8238 Y2.7638 
G01 X42.9978 Y2.8359 
G01 X43.1544 Y2.9405 
G01 X43.2875 Y3.0736 
G01 X43.3921 Y3.2302 
G01 X43.4642 Y3.4042 
G01 X43.5009 Y3.5888 
G01 X43.5009 Y5.3011 
G01 X43.4642 Y5.4858 
G01 X43.3921 Y5.6598 
G01 X43.3485 Y5.7250 
G01 X43.4159 Y5.6907 
G01 X43.4304 Y5.6860 
G01 X43.4441 Y5.6794 
G01 X43.5171 Y5.6578 
G01 X43.5894 Y5.6343 
G01 X43.6044 Y5.6319 
G01 X43.6191 Y5.6276 
G01 X43.6945 Y5.6177 
G01 X43.7696 Y5.6058 
G01 X43.7848 Y5.6058 
G01 X43.8000 Y5.6038 
G01 X43.8759 Y5.6058 
G01 X43.9259 Y5.6058 
G01 X43.9259 Y4.3538 
G01 X43.9544 Y4.1736 
G01 X44.0108 Y4.0001 
G01 X44.0936 Y3.8375 
G01 X44.1291 Y3.7887 
G01 X44.1291 Y3.5888 
G01 X44.1658 Y3.4042 
G01 X44.2379 Y3.2302 
G01 X44.3425 Y3.0736 
G01 X44.4756 Y2.9405 
G01 X44.6322 Y2.8359 
G01 X44.8062 Y2.7638 
G01 X44.9909 Y2.7271 
G01 X45.1791 Y2.7271 
G01 X45.3638 Y2.7638 
G01 X45.5378 Y2.8359 
G01 X45.6944 Y2.9405 
G01 X45.8275 Y3.0736 
G01 X45.9321 Y3.2302 
G01 X46.0042 Y3.4042 
G01 X46.0409 Y3.5888 
G01 X46.0409 Y3.7887 
G01 X46.0764 Y3.8375 
G01 X46.1592 Y4.0001 
G01 X46.2156 Y4.1736 
G01 X46.2441 Y4.3538 
