;(.../Electronics/Eagle/pcb-gcode/pcb-gcode.ulp)
;(Copyright 2005 - 2012 by John Johnson)
;(See readme.txt for licensing terms.)
;(This file generated from the board:)
;(.../Electronics/chicken-shield.brd)
;(Current profile is .../pcb-gcode/profiles/generic.pp  )
;(This file generated 08/07/2017 11:52)
;(Settings from pcb-machine.h)
;(spindle on time = 1000.0000)
;(spindle speed = 20000.0000)
;(tool change at 0.0000 0.0000 5.0000 )
;(feed rate xy = F0.00  )
;(feed rate z  = F50.00 )
;(Z Axis Settings)
;(  High     Up        Down     Drill)
;(5.0000 	2.0000 	-0.2000 	-2.0000 )
;(Settings from pcb-defaults.h)
;(isolate min = 0.0250)
;(isolate max = 0.5000)
;(isolate step = 0.0800)
;(Generated top outlines, top drill, )
;(Unit of measure: mm)
;( Tool|       Size       |  Min Sub |  Max Sub |   Count )
;( T01  0.600mm 0.0236in 0.0000in 0.0000in )
;( T02  0.813mm 0.0320in 0.0000in 0.0000in )
;( T03  1.016mm 0.0400in 0.0000in 0.0000in )
;(Metric Mode)
G21
;(Absolute Coordinates)
G90
;S20000
G00 Z5.0000  F3000
G00 X0.0000 Y0.0000  F3000
;M03 S1
G04 P1000.000000
;M03 S0
;M06 T01  ; 0.6000 
G01 Z0.0000 F50.00 
;M06 
G00 Z2.0000  F3000
;M03 S1
G04 P1000.000000
G00 X29.8450 Y48.8950  F3000
G01 Z-2.0000 F50.00 
G00 Z2.0000  F3000
G00 X36.8300 Y48.8950  F3000
G01 Z-2.0000 F50.00 
G00 Z2.0000  F3000
;M03 S0
G00 Z5.0000  F3000
G00 X0.0000 Y0.0000  F3000
;M06 T02  ; 0.8128 
G01 Z0.0000 F50.00 
;M06 
G00 Z2.0000  F3000
;M03 S1
G04 P1000.000000
G00 X28.5750 Y32.3850  F3000
G01 Z-2.0000 F50.00 
G00 Z2.0000  F3000
G00 X36.1950 Y32.3850  F3000
G01 Z-2.0000 F50.00 
G00 Z2.0000  F3000
;M03 S0
G00 Z5.0000  F3000
G00 X0.0000 Y0.0000  F3000
;M06 T03  ; 1.0160 
G01 Z0.0000 F50.00 
;M06 
G00 Z2.0000  F3000
;M03 S1
G04 P1000.000000
G00 X7.6200 Y13.9700  F3000
G01 Z-2.0000 F50.00 
G00 Z2.0000  F3000
G00 X7.6200 Y16.5100  F3000
G01 Z-2.0000 F50.00 
G00 Z2.0000  F3000
G00 X7.6200 Y23.4950  F3000
G01 Z-2.0000 F50.00 
G00 Z2.0000  F3000
G00 X7.6200 Y26.0350  F3000
G01 Z-2.0000 F50.00 
G00 Z2.0000  F3000
G00 X7.6200 Y32.3850  F3000
G01 Z-2.0000 F50.00 
G00 Z2.0000  F3000
G00 X7.6200 Y34.9250  F3000
G01 Z-2.0000 F50.00 
G00 Z2.0000  F3000
G00 X7.6200 Y41.9100  F3000
G01 Z-2.0000 F50.00 
G00 Z2.0000  F3000
G00 X7.6200 Y44.4500  F3000
G01 Z-2.0000 F50.00 
G00 Z2.0000  F3000
G00 X8.2550 Y52.7050  F3000
G01 Z-2.0000 F50.00 
G00 Z2.0000  F3000
G00 X10.7950 Y52.7050  F3000
G01 Z-2.0000 F50.00 
G00 Z2.0000  F3000
G00 X13.3350 Y52.7050  F3000
G01 Z-2.0000 F50.00 
G00 Z2.0000  F3000
G00 X15.8750 Y52.7050  F3000
G01 Z-2.0000 F50.00 
G00 Z2.0000  F3000
G00 X18.4150 Y52.7050  F3000
G01 Z-2.0000 F50.00 
G00 Z2.0000  F3000
G00 X20.9550 Y52.7050  F3000
G01 Z-2.0000 F50.00 
G00 Z2.0000  F3000
G00 X26.0350 Y52.7050  F3000
G01 Z-2.0000 F50.00 
G00 Z2.0000  F3000
G00 X28.5750 Y52.7050  F3000
G01 Z-2.0000 F50.00 
G00 Z2.0000  F3000
G00 X31.1150 Y52.7050  F3000
G01 Z-2.0000 F50.00 
G00 Z2.0000  F3000
G00 X33.6550 Y52.7050  F3000
G01 Z-2.0000 F50.00 
G00 Z2.0000  F3000
G00 X36.1950 Y52.7050  F3000
G01 Z-2.0000 F50.00 
G00 Z2.0000  F3000
G00 X38.7350 Y52.7050  F3000
G01 Z-2.0000 F50.00 
G00 Z2.0000  F3000
G00 X41.2750 Y52.7050  F3000
G01 Z-2.0000 F50.00 
G00 Z2.0000  F3000
G00 X67.9450 Y41.2750  F3000
G01 Z-2.0000 F50.00 
G00 Z2.0000  F3000
G00 X67.9450 Y38.7350  F3000
G01 Z-2.0000 F50.00 
G00 Z2.0000  F3000
G00 X47.6250 Y4.4450  F3000
G01 Z-2.0000 F50.00 
G00 Z2.0000  F3000
G00 X45.0850 Y4.4450  F3000
G01 Z-2.0000 F50.00 
G00 Z2.0000  F3000
G00 X42.5450 Y4.4450  F3000
G01 Z-2.0000 F50.00 
G00 Z2.0000  F3000
G00 X40.0050 Y4.4450  F3000
G01 Z-2.0000 F50.00 
G00 Z2.0000  F3000
G00 X37.4650 Y4.4450  F3000
G01 Z-2.0000 F50.00 
G00 Z2.0000  F3000
G00 X34.9250 Y4.4450  F3000
G01 Z-2.0000 F50.00 
G00 Z2.0000  F3000
G00 X32.3850 Y4.4450  F3000
G01 Z-2.0000 F50.00 
G00 Z2.0000  F3000
G00 X29.8450 Y4.4450  F3000
G01 Z-2.0000 F50.00 
G00 Z2.0000  F3000
G00 X26.0350 Y4.4450  F3000
G01 Z-2.0000 F50.00 
G00 Z2.0000  F3000
G00 X23.4950 Y4.4450  F3000
G01 Z-2.0000 F50.00 
G00 Z2.0000  F3000
G00 X20.9550 Y4.4450  F3000
G01 Z-2.0000 F50.00 
G00 Z2.0000  F3000
G00 X18.4150 Y4.4450  F3000
G01 Z-2.0000 F50.00 
G00 Z2.0000  F3000
G00 X15.8750 Y4.4450  F3000
G01 Z-2.0000 F50.00 
G00 Z2.0000  F3000
G00 X13.3350 Y4.4450  F3000
G01 Z-2.0000 F50.00 
G00 Z2.0000  F3000
G00 X10.7950 Y4.4450  F3000
G01 Z-2.0000 F50.00 
G00 Z2.0000  F3000
G00 X8.2550 Y4.4450  F3000
G01 Z-2.0000 F50.00 
G00 Z2.0000  F3000
;T01 
G00 Z5.0000  F3000
;M03 S0
M0
